;FLAVOR:Marlin
;TIME:21507
;Filament used: 14.5106m
;Layer height: 0.2
;MINX:3.981
;MINY:21.488
;MINZ:0.2
;MAXX:226.548
;MAXY:210.574
;MAXZ:20
;Generated with Cura_SteamEngine 5.2.1
M140 S60
M105
M190 S60
M104 S210
M105
M109 S210
M82 ;absolute extrusion mode
; Ender 3 Custom Start G-code
G92 E0 ; Reset Extruder
G28 ; Home all axes
G1 Z2.0 F3000 ; Move Z Axis up little to prevent scratching of Heat Bed
G1 X0.1 Y20 Z0.3 F5000.0 ; Move to start position
G1 X0.1 Y200.0 Z0.3 F1500.0 E15 ; Draw the first line
G1 X0.4 Y200.0 Z0.3 F5000.0 ; Move to side a little
G1 X0.4 Y20 Z0.3 F1500.0 E30 ; Draw the second line
G92 E0 ; Reset Extruder
G1 Z2.0 F3000 ; Move Z Axis up little to prevent scratching of Heat Bed
G1 X5 Y20 Z0.3 F5000.0 ; Move over to prevent blob squish
G92 E0
G92 E0
G1 F2700 E-5
;LAYER_COUNT:100
;LAYER:0
M107
G0 F6000 X10.814 Y22.466 Z0.2
;TYPE:SKIRT
G1 F2700 E0
G1 F1200 X11.684 Y22.117 E0.03118
G1 X12.581 Y21.843 E0.06237
G1 X13.499 Y21.646 E0.0936
G1 X14.429 Y21.529 E0.12478
G1 X15.297 Y21.491 E0.15367
G1 X16.049 Y21.488 E0.17869
G1 X29.712 Y21.651 E0.63315
G1 X30.564 Y21.672 E0.6615
G1 X31.5 Y21.736 E0.6927
G1 X32.426 Y21.879 E0.72387
G1 X33.338 Y22.101 E0.75508
G1 X34.227 Y22.4 E0.78628
G1 X35.087 Y22.773 E0.81746
G1 X35.913 Y23.218 E0.84866
G1 X36.697 Y23.732 E0.87985
G1 X37.435 Y24.311 E0.91104
G1 X38.121 Y24.951 E0.94225
G1 X38.927 Y25.866 E0.9828
G1 X39.445 Y26.526 E1.01071
G1 X40.241 Y27.565 E1.05424
G1 X41.828 Y29.518 E1.13794
G1 X43.484 Y31.442 E1.22237
G1 X45.16 Y33.283 E1.30518
G1 X46.911 Y35.098 E1.38906
G1 X48.722 Y36.873 E1.4734
G1 X50.56 Y38.576 E1.55674
G1 X52.455 Y40.234 E1.64049
G1 X54.402 Y41.841 E1.72445
G1 X56.382 Y43.385 E1.80796
G1 X58.384 Y44.857 E1.89061
G1 X60.512 Y46.33 E1.97669
G1 X62.563 Y47.667 E2.05812
G1 X64.757 Y49.009 E2.14366
G1 X66.884 Y50.228 E2.2252
G1 X69.159 Y51.45 E2.3111
G1 X71.365 Y52.555 E2.39316
G1 X73.686 Y53.635 E2.4783
G1 X75.979 Y54.626 E2.56139
G1 X78.304 Y55.553 E2.64464
G1 X80.694 Y56.428 E2.72929
G1 X83.072 Y57.224 E2.81269
G1 X85.467 Y57.95 E2.89593
G1 X87.927 Y58.621 E2.98074
G1 X90.352 Y59.208 E3.06372
G1 X92.816 Y59.732 E3.14751
G1 X95.283 Y60.185 E3.23094
G1 X97.775 Y60.569 E3.3148
G1 X100.283 Y60.883 E3.39887
G1 X102.811 Y61.129 E3.48334
G1 X105.288 Y61.298 E3.56592
G1 X107.811 Y61.399 E3.6499
G1 X110.395 Y61.429 E3.73585
G1 X111.292 Y61.429 E3.76569
G1 X112.229 Y61.469 E3.79688
G1 X113.159 Y61.589 E3.82807
G1 X114.076 Y61.787 E3.85927
G1 X114.972 Y62.063 E3.89045
G1 X115.842 Y62.414 E3.92166
G1 X116.678 Y62.838 E3.95283
G1 X117.506 Y63.353 E3.98527
G1 X118.66 Y64.143 E4.03178
G1 X120.858 Y65.597 E4.11943
G1 X122.984 Y66.918 E4.20268
G1 X125.14 Y68.174 E4.28567
G1 X127.384 Y69.398 E4.37069
G1 X129.594 Y70.524 E4.45319
G1 X131.883 Y71.609 E4.53744
G1 X134.217 Y72.635 E4.62224
G1 X136.533 Y73.577 E4.7054
G1 X138.873 Y74.452 E4.78849
G1 X141.261 Y75.269 E4.87243
G1 X143.666 Y76.016 E4.95619
G1 X146.122 Y76.704 E5.04102
G1 X148.108 Y77.206 E5.10916
G1 X157.469 Y79.461 E5.42941
G1 X161.515 Y80.346 E5.56716
G1 X162.422 Y80.586 E5.59837
G1 X163.305 Y80.901 E5.62955
G1 X164.158 Y81.291 E5.66074
G1 X164.975 Y81.752 E5.69195
G1 X165.75 Y82.281 E5.72315
G1 X166.476 Y82.874 E5.75433
G1 X167.15 Y83.527 E5.78555
G1 X167.765 Y84.235 E5.81674
G1 X168.318 Y84.992 E5.84792
G1 X168.804 Y85.794 E5.87911
G1 X169.22 Y86.635 E5.91032
G1 X169.564 Y87.507 E5.94149
G1 X169.831 Y88.406 E5.97268
G1 X170.052 Y89.525 E6.01062
G1 X170.449 Y92.283 E6.1033
G1 X170.872 Y94.725 E6.18573
G1 X171.377 Y97.215 E6.27023
G1 X171.941 Y99.647 E6.35327
G1 X172.581 Y102.089 E6.43723
G1 X173.299 Y104.54 E6.52218
G1 X174.061 Y106.894 E6.60447
G1 X174.906 Y109.273 E6.68844
G1 X175.814 Y111.618 E6.77208
G1 X176.791 Y113.941 E6.8559
G1 X177.838 Y116.25 E6.94022
G1 X178.935 Y118.494 E7.0233
G1 X180.116 Y120.746 E7.10788
G1 X181.338 Y122.926 E7.191
G1 X182.634 Y125.091 E7.27492
G1 X183.985 Y127.211 E7.35853
G1 X185.388 Y129.279 E7.44165
G1 X186.877 Y131.347 E7.52641
G1 X188.406 Y133.347 E7.61014
G1 X189.955 Y135.262 E7.69206
G1 X191.645 Y137.231 E7.77837
G1 X192.923 Y138.648 E7.84183
G1 X202.869 Y149.44 E8.32996
G1 X203.427 Y150.064 E8.35781
G1 X204.022 Y150.789 E8.389
G1 X204.553 Y151.562 E8.42019
G1 X205.015 Y152.378 E8.45138
G1 X205.407 Y153.23 E8.48257
G1 X205.724 Y154.113 E8.51378
G1 X205.955 Y154.973 E8.5434
G1 X206.122 Y155.712 E8.56859
G1 X206.723 Y158.222 E8.65444
G1 X207.388 Y160.686 E8.73932
G1 X208.114 Y163.102 E8.82323
G1 X208.907 Y165.493 E8.90701
G1 X209.764 Y167.855 E8.99058
G1 X210.689 Y170.193 E9.07421
G1 X211.681 Y172.508 E9.15798
G1 X212.739 Y174.792 E9.2417
G1 X213.857 Y177.042 E9.32527
G1 X215.039 Y179.26 E9.40886
G1 X216.29 Y181.453 E9.49283
G1 X217.6 Y183.606 E9.57665
G1 X218.973 Y185.728 E9.66072
G1 X220.392 Y187.788 E9.74391
G1 X221.867 Y189.806 E9.82705
G1 X223.752 Y192.225 E9.92905
G1 X224.118 Y192.68 E9.94847
G1 X224.674 Y193.435 E9.97966
G1 X225.164 Y194.235 E10.01086
G1 X225.584 Y195.074 E10.04207
G1 X225.931 Y195.945 E10.07325
G1 X226.203 Y196.842 E10.10443
G1 X226.397 Y197.76 E10.13563
G1 X226.512 Y198.691 E10.16684
G1 X226.548 Y199.628 E10.19802
G1 X226.503 Y200.565 E10.22922
G1 X226.379 Y201.494 E10.2604
G1 X226.177 Y202.41 E10.29159
G1 X225.897 Y203.305 E10.32279
G1 X225.541 Y204.173 E10.35399
G1 X225.113 Y205.008 E10.3852
G1 X224.616 Y205.803 E10.41638
G1 X224.053 Y206.553 E10.44757
G1 X223.427 Y207.252 E10.47878
G1 X222.745 Y207.895 E10.50996
G1 X222.01 Y208.478 E10.54116
G1 X221.228 Y208.996 E10.57236
G1 X220.405 Y209.446 E10.60356
G1 X219.547 Y209.823 E10.63473
G1 X218.659 Y210.127 E10.66594
G1 X217.749 Y210.353 E10.69713
G1 X216.823 Y210.502 E10.72832
G1 X215.888 Y210.571 E10.75951
G1 X215.339 Y210.574 E10.77777
G1 X214.234 Y210.551 E10.81453
G1 X127.727 Y207.26 E13.69384
G1 X127.028 Y207.223 E13.71713
G1 X126.094 Y207.133 E13.74833
G1 X125.171 Y206.965 E13.77954
G1 X124.267 Y206.718 E13.81071
G1 X123.386 Y206.395 E13.84192
G1 X122.536 Y205.998 E13.87312
G1 X121.723 Y205.531 E13.9043
G1 X120.953 Y204.996 E13.93549
G1 X120.231 Y204.397 E13.96669
G1 X119.646 Y203.827 E13.99386
G1 X119.114 Y203.267 E14.01955
G1 X80.059 Y160.886 E15.93639
G1 X79.573 Y160.343 E15.96063
G1 X78.977 Y159.618 E15.99185
G1 X78.446 Y158.845 E16.02304
G1 X77.983 Y158.03 E16.05421
G1 X77.605 Y157.214 E16.08413
G1 X76.416 Y154.429 E16.18484
G1 X75.365 Y152.159 E16.26804
G1 X74.255 Y149.93 E16.35086
G1 X73.048 Y147.67 E16.43608
G1 X71.8 Y145.482 E16.51986
G1 X70.507 Y143.359 E16.60254
G1 X69.124 Y141.225 E16.68712
G1 X67.714 Y139.181 E16.76971
G1 X66.224 Y137.143 E16.85367
G1 X64.661 Y135.13 E16.93844
G1 X63.077 Y133.203 E17.02141
G1 X61.409 Y131.289 E17.10585
G1 X59.718 Y129.454 E17.18884
G1 X57.962 Y127.654 E17.27248
G1 X56.148 Y125.897 E17.35648
G1 X54.292 Y124.198 E17.44016
G1 X52.378 Y122.544 E17.5243
G1 X50.461 Y120.979 E17.60661
G1 X48.424 Y119.411 E17.69211
G1 X46.425 Y117.961 E17.77424
G1 X44.316 Y116.518 E17.85924
G1 X42.193 Y115.154 E17.94317
G1 X40.067 Y113.87 E18.02577
G1 X37.877 Y112.632 E18.10945
G1 X35.633 Y111.444 E18.1939
G1 X33.35 Y110.318 E18.27856
G1 X31.418 Y109.427 E18.34933
G1 X17.033 Y102.996 E18.87341
G1 X16.284 Y102.649 E18.90086
G1 X15.45 Y102.219 E18.93207
G1 X14.657 Y101.719 E18.96325
G1 X13.909 Y101.153 E18.99445
G1 X13.212 Y100.526 E19.02563
G1 X12.571 Y99.841 E19.05684
G1 X11.99 Y99.104 E19.08805
G1 X11.475 Y98.321 E19.11922
G1 X11.028 Y97.496 E19.15043
G1 X10.653 Y96.637 E19.1816
G1 X10.352 Y95.748 E19.21282
G1 X10.128 Y94.838 E19.24399
G1 X9.983 Y93.911 E19.2752
G1 X9.917 Y92.976 E19.30637
G1 X9.948 Y91.797 E19.3456
G1 X10.015 Y90.956 E19.37366
G1 X10.12 Y89.834 E19.41114
G1 X10.286 Y87.314 E19.49514
G1 X10.381 Y84.792 E19.57908
G1 X10.404 Y82.299 E19.662
G1 X10.356 Y79.771 E19.7461
G1 X10.236 Y77.219 E19.83107
G1 X10.049 Y74.766 E19.9129
G1 X9.785 Y72.231 E19.99767
G1 X9.453 Y69.734 E20.08145
G1 X9.052 Y67.252 E20.16507
G1 X8.581 Y64.785 E20.2486
G1 X8.051 Y62.378 E20.33058
G1 X7.425 Y59.874 E20.41643
G1 X6.75 Y57.468 E20.49954
G1 X6.001 Y55.063 E20.58332
G1 X5.184 Y52.68 E20.66711
G1 X4.622 Y51.124 E20.72213
G1 X4.344 Y50.228 E20.75334
G1 X4.144 Y49.312 E20.78452
G1 X4.023 Y48.382 E20.81571
G1 X3.981 Y47.489 E20.84545
G1 X3.982 Y46.814 E20.8679
G1 X4.319 Y32.884 E21.33135
G1 X4.349 Y32.074 E21.3583
G1 X4.424 Y31.139 E21.3895
G1 X4.579 Y30.214 E21.4207
G1 X4.812 Y29.306 E21.45188
G1 X5.122 Y28.42 E21.4831
G1 X5.506 Y27.565 E21.51427
G1 X5.961 Y26.745 E21.54546
G1 X6.485 Y25.967 E21.57666
G1 X7.073 Y25.236 E21.60786
G1 X7.721 Y24.558 E21.63906
G1 X8.424 Y23.938 E21.67023
G1 X9.178 Y23.38 E21.70143
G1 X9.976 Y22.888 E21.73261
G1 X10.814 Y22.466 E21.76382
G0 F6000 X11.18 Y22.742
G1 F1200 X12.041 Y22.418 E21.79441
G1 X12.928 Y22.169 E21.82506
G1 X13.833 Y21.999 E21.85568
G1 X14.749 Y21.908 E21.8863
G1 X15.299 Y21.891 E21.9046
G1 X16.051 Y21.888 E21.92961
G1 X29.852 Y22.053 E22.38867
G1 X30.554 Y22.071 E22.41203
G1 X31.472 Y22.135 E22.44263
G1 X32.382 Y22.278 E22.47327
G1 X33.275 Y22.499 E22.50387
G1 X34.146 Y22.797 E22.53449
G1 X34.988 Y23.17 E22.56512
G1 X35.795 Y23.614 E22.59575
G1 X36.559 Y24.127 E22.62636
G1 X37.277 Y24.704 E22.657
G1 X37.942 Y25.341 E22.68762
G1 X38.612 Y26.113 E22.72162
G1 X39.128 Y26.77 E22.74941
G1 X39.92 Y27.804 E22.79273
G1 X41.53 Y29.785 E22.87763
G1 X43.169 Y31.689 E22.96119
G1 X44.893 Y33.583 E23.04637
G1 X46.626 Y35.379 E23.12938
G1 X48.435 Y37.152 E23.21363
G1 X50.308 Y38.887 E23.29855
G1 X52.182 Y40.527 E23.38138
G1 X54.147 Y42.149 E23.46612
G1 X56.145 Y43.707 E23.55039
G1 X58.165 Y45.192 E23.63378
G1 X60.271 Y46.65 E23.71897
G1 X62.382 Y48.026 E23.80278
G1 X64.529 Y49.339 E23.88649
G1 X66.711 Y50.59 E23.97014
G1 X68.943 Y51.788 E24.0544
G1 X71.225 Y52.931 E24.13928
G1 X73.495 Y53.988 E24.22257
G1 X75.852 Y55.006 E24.30796
G1 X78.167 Y55.929 E24.39085
G1 X80.535 Y56.796 E24.47473
G1 X82.967 Y57.61 E24.56003
G1 X85.352 Y58.333 E24.64292
G1 X87.8 Y59.001 E24.72731
G1 X90.315 Y59.609 E24.81337
G1 X92.732 Y60.124 E24.89557
G1 X95.221 Y60.581 E24.97974
G1 X97.701 Y60.963 E25.06319
G1 X100.263 Y61.284 E25.14907
G1 X102.747 Y61.525 E25.23208
G1 X105.245 Y61.696 E25.31536
G1 X107.825 Y61.799 E25.40124
G1 X110.391 Y61.829 E25.48659
G1 X111.292 Y61.829 E25.51655
G1 X112.212 Y61.869 E25.54718
G1 X113.125 Y61.989 E25.57781
G1 X114.024 Y62.187 E25.60843
G1 X114.902 Y62.463 E25.63904
G1 X115.753 Y62.814 E25.66966
G1 X116.571 Y63.237 E25.70029
G1 X117.28 Y63.683 E25.72815
G1 X118.421 Y64.464 E25.77413
G1 X120.631 Y65.926 E25.86227
G1 X122.792 Y67.269 E25.94689
G1 X124.98 Y68.544 E26.03112
G1 X127.175 Y69.741 E26.11427
G1 X129.426 Y70.887 E26.19829
G1 X131.7 Y71.965 E26.28199
G1 X134.041 Y72.995 E26.36705
G1 X136.422 Y73.963 E26.45254
G1 X138.74 Y74.829 E26.53484
G1 X141.129 Y75.647 E26.61883
G1 X143.577 Y76.407 E26.70408
G1 X145.995 Y77.084 E26.7876
G1 X148.013 Y77.595 E26.85684
G1 X157.377 Y79.85 E27.17719
G1 X161.43 Y80.737 E27.31518
G1 X162.32 Y80.973 E27.34581
G1 X163.186 Y81.285 E27.37642
G1 X164.022 Y81.671 E27.40705
G1 X164.821 Y82.128 E27.43766
G1 X165.578 Y82.652 E27.46829
G1 X166.286 Y83.241 E27.49892
G1 X166.94 Y83.888 E27.52952
G1 X167.536 Y84.59 E27.56014
G1 X168.068 Y85.341 E27.59075
G1 X168.534 Y86.136 E27.6214
G1 X168.929 Y86.967 E27.65201
G1 X169.25 Y87.83 E27.68263
G1 X169.495 Y88.718 E27.71327
G1 X169.656 Y89.582 E27.7425
G1 X170.053 Y92.337 E27.83508
G1 X170.481 Y94.808 E27.91849
G1 X170.989 Y97.314 E28.00353
G1 X171.548 Y99.725 E28.08585
G1 X172.196 Y102.197 E28.17085
G1 X172.911 Y104.637 E28.25542
G1 X173.69 Y107.046 E28.33962
G1 X174.532 Y109.415 E28.42325
G1 X175.444 Y111.769 E28.50721
G1 X176.434 Y114.123 E28.59215
G1 X177.472 Y116.412 E28.67574
G1 X178.586 Y118.691 E28.76011
G1 X179.755 Y120.921 E28.84386
G1 X180.98 Y123.106 E28.92717
G1 X182.297 Y125.306 E29.01245
G1 X183.65 Y127.429 E29.09619
G1 X185.076 Y129.532 E29.1807
G1 X186.534 Y131.556 E29.26366
G1 X188.097 Y133.601 E29.34927
G1 X189.671 Y135.546 E29.43249
G1 X191.327 Y137.477 E29.5171
G1 X192.604 Y138.892 E29.58049
G1 X202.575 Y149.711 E30.06985
G1 X203.129 Y150.33 E30.09748
G1 X203.712 Y151.043 E30.12811
G1 X204.231 Y151.803 E30.15872
G1 X204.682 Y152.606 E30.18935
G1 X205.062 Y153.444 E30.21996
G1 X205.368 Y154.313 E30.2506
G1 X205.565 Y155.061 E30.27633
G1 X205.735 Y155.814 E30.302
G1 X206.339 Y158.334 E30.38819
G1 X207.005 Y160.8 E30.47315
G1 X207.737 Y163.238 E30.55781
G1 X208.527 Y165.619 E30.64125
G1 X209.388 Y167.991 E30.72518
G1 X210.314 Y170.332 E30.80891
G1 X211.322 Y172.684 E30.89402
G1 X212.375 Y174.959 E30.9774
G1 X213.503 Y177.229 E31.06171
G1 X214.682 Y179.44 E31.14505
G1 X215.944 Y181.653 E31.22978
G1 X217.272 Y183.835 E31.31474
G1 X218.635 Y185.942 E31.3982
G1 X220.073 Y188.029 E31.4825
G1 X221.541 Y190.038 E31.56526
G1 X223.468 Y192.511 E31.66953
G1 X223.806 Y192.931 E31.68746
G1 X224.352 Y193.673 E31.7181
G1 X224.831 Y194.459 E31.74872
G1 X225.24 Y195.284 E31.77934
G1 X225.576 Y196.141 E31.80996
G1 X225.836 Y197.024 E31.84058
G1 X226.019 Y197.926 E31.87119
G1 X226.122 Y198.841 E31.90181
G1 X226.146 Y199.761 E31.93242
G1 X226.09 Y200.68 E31.96305
G1 X225.955 Y201.591 E31.99368
G1 X225.741 Y202.486 E32.02428
G1 X225.45 Y203.36 E32.05492
G1 X225.084 Y204.205 E32.08555
G1 X224.646 Y205.015 E32.11618
G1 X224.14 Y205.784 E32.14679
G1 X223.569 Y206.506 E32.17741
G1 X222.938 Y207.176 E32.20802
G1 X222.25 Y207.788 E32.23865
G1 X221.512 Y208.339 E32.26928
G1 X220.729 Y208.823 E32.2999
G1 X219.908 Y209.238 E32.33049
G1 X219.053 Y209.58 E32.36112
G1 X218.171 Y209.846 E32.39176
G1 X217.27 Y210.035 E32.42238
G1 X216.356 Y210.145 E32.453
G1 X215.347 Y210.174 E32.48657
G1 X214.451 Y210.157 E32.51638
G1 X127.748 Y206.86 E35.40222
G1 X127.049 Y206.823 E35.4255
G1 X126.132 Y206.735 E35.45614
G1 X125.227 Y206.567 E35.48675
G1 X124.34 Y206.321 E35.51737
G1 X123.477 Y206 E35.54799
G1 X122.646 Y205.604 E35.57861
G1 X121.852 Y205.138 E35.60923
G1 X121.101 Y204.605 E35.63986
G1 X120.4 Y204.009 E35.67047
G1 X119.936 Y203.551 E35.69215
G1 X119.408 Y202.995 E35.71765
G1 X80.357 Y160.619 E37.63429
G1 X79.871 Y160.076 E37.65852
G1 X79.287 Y159.364 E37.68915
G1 X78.767 Y158.604 E37.71978
G1 X78.316 Y157.802 E37.75038
G1 X77.975 Y157.061 E37.77751
G1 X76.789 Y154.282 E37.87801
G1 X75.721 Y151.977 E37.9625
G1 X74.608 Y149.742 E38.04555
G1 X73.399 Y147.477 E38.13094
G1 X72.161 Y145.307 E38.21404
G1 X70.84 Y143.139 E38.29848
G1 X69.456 Y141.002 E38.38316
G1 X68.033 Y138.94 E38.46648
G1 X66.535 Y136.89 E38.55093
G1 X64.984 Y134.893 E38.63503
G1 X63.372 Y132.932 E38.71946
G1 X61.722 Y131.039 E38.80299
G1 X60.015 Y129.187 E38.88676
G1 X58.244 Y127.37 E38.97115
G1 X56.413 Y125.598 E39.0559
G1 X54.56 Y123.902 E39.13945
G1 X52.647 Y122.248 E39.22356
G1 X50.691 Y120.651 E39.30754
G1 X48.657 Y119.086 E39.3929
G1 X46.64 Y117.622 E39.4758
G1 X44.553 Y116.194 E39.5599
G1 X42.436 Y114.834 E39.64359
G1 X40.25 Y113.514 E39.72853
G1 X38.039 Y112.264 E39.813
G1 X35.833 Y111.096 E39.89603
G1 X33.546 Y109.969 E39.98083
G1 X31.559 Y109.052 E40.05361
G1 X17.062 Y102.57 E40.58179
G1 X16.452 Y102.287 E40.60415
G1 X15.634 Y101.863 E40.6348
G1 X14.857 Y101.371 E40.66539
G1 X14.125 Y100.812 E40.69602
G1 X13.444 Y100.192 E40.72665
G1 X12.819 Y99.516 E40.75727
G1 X12.256 Y98.788 E40.78788
G1 X11.758 Y98.014 E40.81849
G1 X11.329 Y97.199 E40.84913
G1 X10.972 Y96.35 E40.87976
G1 X10.69 Y95.474 E40.91037
G1 X10.486 Y94.576 E40.941
G1 X10.36 Y93.664 E40.97162
G1 X10.313 Y92.745 E41.00222
G1 X10.346 Y91.829 E41.03271
G1 X10.413 Y90.988 E41.06077
G1 X10.519 Y89.864 E41.09832
G1 X10.684 Y87.354 E41.18198
G1 X10.779 Y84.81 E41.26666
G1 X10.804 Y82.26 E41.35147
G1 X10.756 Y79.745 E41.43514
G1 X10.638 Y77.25 E41.51821
G1 X10.444 Y74.695 E41.60344
G1 X10.182 Y72.177 E41.68764
G1 X9.849 Y69.677 E41.77153
G1 X9.452 Y67.218 E41.85437
G1 X8.97 Y64.695 E41.9398
G1 X8.434 Y62.259 E42.02276
G1 X7.812 Y59.773 E42.108
G1 X7.134 Y57.356 E42.19149
G1 X6.375 Y54.92 E42.27635
G1 X5.566 Y52.559 E42.35936
G1 X4.998 Y50.99 E42.41486
G1 X4.727 Y50.11 E42.44549
G1 X4.532 Y49.21 E42.47612
G1 X4.417 Y48.297 E42.50672
G1 X4.381 Y47.486 E42.53372
G1 X4.382 Y46.824 E42.55574
G1 X4.719 Y32.894 E43.01919
