;FLAVOR:Marlin
;TIME:3889
;Filament used: 3.27627m
;Layer height: 0.2
;MINX:125.22
;MINY:115.916
;MINZ:0.2
;MAXX:174.78
;MAXY:184.805
;MAXZ:20.2
;Generated with Cura_SteamEngine 5.2.1
M140 S60
M105
M190 S60
M104 S205
M105
M109 S205
M82 ;absolute extrusion mode
G28 ; home all axes
 M117 Purge extruder
 G92 E0 ; reset extruder
 G1 Z1.0 F3000 ; move z up little to prevent scratching of surface
 G1 X2 Y20 Z0.3 F5000.0 ; move to start-line position
 G1 X2 Y200.0 Z0.3 F1500.0 E15 ; draw 1st line
 G1 X2 Y200.0 Z0.4 F5000.0 ; move to side a little
 G1 X2 Y20 Z0.4 F1500.0 E30 ; draw 2nd line
 G92 E0 ; reset extruder
 G1 Z1.0 F3000 ; move z up little to prevent scratching of surface
G92 E0
G92 E0
G1 F1500 E-2
;LAYER_COUNT:100
;LAYER:0
M107
G1 F300 Z0.4
G0 F6000 X150.022 Y121.624 Z0.4
;TYPE:SKIRT
G1 F300 Z0.2
G1 F1500 E0
G1 F1200 X149.999 Y125.641 E0.14697
G1 X149.976 Y121.728 E0.29013
G1 X150.022 Y121.624 E0.29429
G0 F6000 X149.626 Y121.459
G1 F1200 X149.772 Y121.091 E0.30878
G1 X149.993 Y120.226 E0.34144
G1 X150.196 Y120.694 E0.36011
G1 X150.465 Y121.117 E0.37845
G1 X150.398 Y132.605 E0.79875
G1 X149.599 Y132.605 E0.82799
G1 X149.535 Y121.585 E1.23117
G1 X149.626 Y121.459 E1.23686
G0 F6000 X149.305 Y121.143
G1 F1200 X149.724 Y119.501 E1.29886
G1 X149.885 Y119.146 E1.31312
G1 X149.954 Y118.872 E1.32346
G1 X149.999 Y118.766 E1.32767
G1 X150.059 Y118.899 E1.33301
G1 X150.133 Y119.17 E1.34329
G1 X150.242 Y119.421 E1.3533
G1 X150.43 Y120.144 E1.38063
G1 X150.567 Y120.458 E1.39316
G1 X150.906 Y120.991 E1.41627
G1 X150.835 Y133.045 E1.85729
G1 X149.162 Y133.045 E1.9185
G1 X149.094 Y121.449 E2.34276
G1 X149.305 Y121.143 E2.35636
G0 F6000 X148.919 Y120.873
G1 F1200 X149.316 Y119.32 E2.415
G1 X149.458 Y119.039 E2.42652
G1 X149.542 Y118.702 E2.43923
G1 X149.654 Y118.465 E2.44882
G1 X149.737 Y118.152 E2.46067
G1 X149.845 Y117.917 E2.47013
G1 X149.921 Y117.606 E2.48184
G1 X150.006 Y117.41 E2.48966
G1 X150.059 Y117.541 E2.49483
G1 X150.167 Y117.95 E2.51031
G1 X150.267 Y118.167 E2.51905
G1 X150.346 Y118.47 E2.5305
G1 X150.468 Y118.724 E2.54081
G1 X150.558 Y119.055 E2.55336
G1 X150.657 Y119.266 E2.56189
G1 X150.856 Y120.033 E2.59088
G1 X150.938 Y120.221 E2.59838
G1 X151.347 Y120.863 E2.62623
G1 X151.273 Y133.485 E3.08803
G1 X148.724 Y133.485 E3.18129
G1 X148.653 Y121.281 E3.6278
G1 X148.769 Y121.153 E3.63412
G1 X148.919 Y120.873 E3.64574
G0 F6000 X148.479 Y120.818
G1 F1200 X148.909 Y119.136 E3.70925
G1 X149.031 Y118.932 E3.71795
G1 X149.132 Y118.53 E3.73312
G1 X149.229 Y118.352 E3.74053
G1 X149.329 Y117.974 E3.75484
G1 X149.418 Y117.812 E3.7616
G1 X149.511 Y117.433 E3.77588
G1 X149.578 Y117.31 E3.781
G1 X149.688 Y116.894 E3.79674
G1 X149.714 Y116.839 E3.79897
G1 X149.846 Y116.441 E3.81431
G1 X149.997 Y116.162 E3.82592
G1 X150.145 Y116.437 E3.83734
G1 X150.272 Y116.825 E3.85228
G1 X150.339 Y116.948 E3.85741
G1 X150.424 Y117.28 E3.86994
G1 X150.47 Y117.375 E3.87381
G1 X150.592 Y117.838 E3.89132
G1 X150.673 Y117.985 E3.89746
G1 X150.771 Y118.359 E3.91161
G1 X150.877 Y118.547 E3.9195
G1 X150.983 Y118.94 E3.9344
G1 X151.066 Y119.093 E3.94077
G1 X151.291 Y119.957 E3.97343
G1 X151.788 Y120.737 E4.00727
G1 X151.71 Y133.925 E4.48977
G1 X148.287 Y133.925 E4.61501
G1 X148.212 Y121.113 E5.08376
G1 X148.479 Y120.818 E5.09832
G1 F1500 E3.09832
G1 F300 Z0.4
;MESH:Masangels.stl
G0 F6000 X146.1 Y183.925 Z0.4
;TYPE:WALL-INNER
G1 F300 Z0.2
G1 F1500 E5.09832
G1 F1200 X153.9 Y183.925 E5.38369
G1 X153.9 Y164.887 E6.08021
G1 X154.016 Y164.532 E6.09388
G1 X154.212 Y164.233 E6.10696
G1 X154.508 Y164.041 E6.11987
G1 X154.862 Y163.925 E6.1335
G1 X173.9 Y163.925 E6.83002
G1 X173.9 Y160.024 E6.97275
G1 X173.9 Y156.123 E7.11547
G1 X154.862 Y156.123 E7.812
G1 X154.508 Y156.007 E7.82562
G1 X154.209 Y155.814 E7.83864
G1 X154.016 Y155.515 E7.85167
G1 X153.9 Y155.161 E7.86529
G1 X153.9 Y136.125 E8.56175
G1 X146.1 Y136.125 E8.84712
G1 X146.1 Y155.161 E9.54357
G1 X145.984 Y155.515 E9.5572
G1 X145.791 Y155.814 E9.57022
G1 X145.492 Y156.007 E9.58324
G1 X145.138 Y156.123 E9.59687
G1 X126.1 Y156.123 E10.2934
G1 X126.1 Y163.925 E10.57884
G1 X145.138 Y163.925 E11.27537
G1 X145.492 Y164.041 E11.289
G1 X145.788 Y164.233 E11.30191
G1 X145.984 Y164.532 E11.31499
G1 X146.1 Y164.887 E11.32865
G1 X146.1 Y183.925 E12.02518
G0 F6000 X145.66 Y184.365
G1 F1200 X154.34 Y184.365 E12.34275
G1 X154.34 Y164.941 E13.0534
G1 X154.409 Y164.729 E13.06155
G1 X154.577 Y164.517 E13.07145
G1 X154.791 Y164.398 E13.08041
G1 X154.942 Y164.367 E13.08605
G1 X174.34 Y164.365 E13.79575
G1 X174.34 Y160.024 E13.95457
G1 X174.34 Y155.683 E14.11339
G1 X154.942 Y155.681 E14.82309
G1 X154.791 Y155.65 E14.82873
G1 X154.492 Y155.446 E14.84197
G1 X154.373 Y155.232 E14.85093
G1 X154.342 Y155.081 E14.85657
G1 X154.34 Y135.685 E15.56619
G1 X145.66 Y135.685 E15.88376
G1 X145.658 Y155.081 E16.59338
G1 X145.627 Y155.232 E16.59902
G1 X145.508 Y155.446 E16.60798
G1 X145.296 Y155.614 E16.61788
G1 X145.084 Y155.683 E16.62604
G1 X125.66 Y155.683 E17.33669
G1 X125.66 Y164.365 E17.65433
G1 X145.084 Y164.365 E18.36498
G1 X145.423 Y164.517 E18.37857
G1 X145.591 Y164.729 E18.38846
G1 X145.66 Y164.941 E18.39662
G1 X145.66 Y184.365 E19.10727
G0 F6000 X145.22 Y184.805
;TYPE:WALL-OUTER
G1 F1200 X154.78 Y184.805 E19.45703
G1 X154.782 Y164.988 E20.18206
G1 X154.877 Y164.841 E20.18847
G1 X154.98 Y164.805 E20.19246
G1 X174.78 Y164.805 E20.91686
G1 X174.78 Y160.024 E21.09178
G1 X174.78 Y155.243 E21.2667
G1 X154.98 Y155.243 E21.99111
G1 X154.816 Y155.146 E21.99808
G1 X154.78 Y155.043 E22.00207
G1 X154.78 Y135.245 E22.7264
G1 X145.22 Y135.245 E23.07616
G1 X145.22 Y155.043 E23.8005
G1 X145.184 Y155.146 E23.80449
G1 X145.037 Y155.241 E23.81089
G1 X125.22 Y155.243 E24.53592
G1 X125.22 Y164.805 E24.88576
G1 X145.037 Y164.807 E25.61078
G1 X145.184 Y164.902 E25.61719
G1 X145.218 Y164.988 E25.62057
G1 X145.22 Y184.805 E26.3456
G1 F1500 E24.3456
G1 F300 Z0.4
G0 F6000 X146.496 Y183.529 Z0.4
;TYPE:SKIN
G1 F300 Z0.2
G1 F1500 E26.3456
G1 F1200 X153.504 Y183.529 E26.602
G1 X153.505 Y164.85 E27.28539
G1 X153.583 Y164.542 E27.29701
G1 X153.75 Y164.201 E27.3109
G1 X153.935 Y163.972 E27.32167
G1 X154.165 Y163.782 E27.33259
G1 X154.525 Y163.604 E27.34728
G1 X154.872 Y163.533 E27.36024
G1 X173.504 Y163.529 E28.04191
G1 X173.504 Y160.024 E28.17015
G1 X173.504 Y156.52 E28.29835
G1 X154.869 Y156.514 E28.98013
G1 X154.411 Y156.414 E28.99728
G1 X154.049 Y156.179 E29.01307
G1 X153.849 Y155.981 E29.02337
G1 X153.601 Y155.606 E29.03982
G1 X153.508 Y155.154 E29.0567
G1 X153.504 Y136.521 E29.73841
G1 X146.497 Y136.521 E29.99477
G1 X146.491 Y155.154 E30.67648
G1 X146.399 Y155.606 E30.69335
G1 X146.151 Y155.981 E30.7098
G1 X145.959 Y156.173 E30.71974
G1 X145.671 Y156.365 E30.7324
G1 X145.193 Y156.517 E30.75075
G1 X126.496 Y156.519 E31.4348
G1 X126.496 Y163.529 E31.69127
G1 X145.195 Y163.531 E32.3754
G1 X145.67 Y163.683 E32.39364
G1 X145.958 Y163.874 E32.40629
G1 X146.163 Y164.082 E32.41697
G1 X146.336 Y164.348 E32.42858
G1 X146.495 Y164.839 E32.44746
G1 X146.496 Y183.529 E33.13126
G0 F6000 X147.217 Y183.308
G1 F1200 X146.714 Y182.805 E33.15728
G0 F6000 X146.714 Y182.183
G1 F1200 X147.839 Y183.308 E33.21549
G0 F6000 X148.462 Y183.308
G1 F1200 X146.714 Y181.56 E33.30593
G0 F6000 X146.714 Y180.938
G1 F1200 X149.084 Y183.308 E33.42856
G0 F6000 X149.706 Y183.308
G1 F1200 X146.714 Y180.316 E33.58337
G0 F6000 X146.714 Y179.694
G1 F1200 X150.328 Y183.308 E33.77036
G0 F6000 X150.951 Y183.308
G1 F1200 X146.714 Y179.071 E33.98958
G0 F6000 X146.714 Y178.449
G1 F1200 X151.573 Y183.308 E34.24099
G0 F6000 X152.195 Y183.308
G1 F1200 X146.714 Y177.826 E34.52461
G0 F6000 X146.714 Y177.204
G1 F1200 X152.817 Y183.308 E34.8404
G0 F6000 X153.285 Y183.153
G1 F1200 X146.714 Y176.582 E35.18039
G0 F6000 X146.714 Y175.959
G1 F1200 X153.285 Y182.531 E35.52041
G0 F6000 X153.285 Y181.908
G1 F1200 X146.714 Y175.337 E35.86039
G0 F6000 X146.714 Y174.715
G1 F1200 X153.285 Y181.286 E36.20038
G0 F6000 X153.285 Y180.664
G1 F1200 X146.714 Y174.093 E36.54037
G0 F6000 X146.713 Y173.47
G1 F1200 X153.285 Y180.042 E36.88041
G0 F6000 X153.285 Y179.419
G1 F1200 X146.713 Y172.848 E37.22042
G0 F6000 X146.713 Y172.225
G1 F1200 X153.285 Y178.797 E37.56046
G0 F6000 X153.285 Y178.176
G1 F1200 X146.713 Y171.603 E37.90053
G0 F6000 X146.713 Y170.981
G1 F1200 X153.285 Y177.553 E38.24057
G0 F6000 X153.285 Y176.931
G1 F1200 X146.713 Y170.358 E38.58063
G0 F6000 X146.713 Y169.736
G1 F1200 X153.285 Y176.309 E38.9207
G0 F6000 X153.285 Y175.687
G1 F1200 X146.712 Y169.113 E39.26081
G0 F6000 X146.712 Y168.491
G1 F1200 X153.285 Y175.064 E39.6009
G0 F6000 X153.285 Y174.442
G1 F1200 X146.712 Y167.869 E39.941
G0 F6000 X146.712 Y167.247
G1 F1200 X153.286 Y173.82 E40.28111
G0 F6000 X153.286 Y173.198
G1 F1200 X146.712 Y166.624 E40.62126
G0 F6000 X146.712 Y166.002
G1 F1200 X153.286 Y172.576 E40.9614
G0 F6000 X153.286 Y171.954
G1 F1200 X146.712 Y165.38 E41.30154
G0 F6000 X146.697 Y164.743
G1 F1200 X153.286 Y171.331 E41.64243
G0 F6000 X153.286 Y170.709
G1 F1200 X139.312 Y156.735 E42.36546
G0 F6000 X139.934 Y156.735
G1 F1200 X153.286 Y170.087 E43.0563
G0 F6000 X153.286 Y169.465
G1 F1200 X140.555 Y156.734 E43.71501
G0 F6000 X141.178 Y156.734
G1 F1200 X153.287 Y168.843 E44.34154
G0 F6000 X153.287 Y168.221
G1 F1200 X141.8 Y156.734 E44.93588
G0 F6000 X142.422 Y156.734
G1 F1200 X153.287 Y167.599 E45.49804
G0 F6000 X153.287 Y166.976
G1 F1200 X143.044 Y156.733 E46.02802
G0 F6000 X143.666 Y156.733
G1 F1200 X153.287 Y166.354 E46.52582
G0 F6000 X153.287 Y165.732
G1 F1200 X144.288 Y156.733 E46.99143
G0 F6000 X144.91 Y156.733
G1 F1200 X153.287 Y165.11 E47.42486
G0 F6000 X153.354 Y164.555
G1 F1200 X145.46 Y156.66 E47.83333
G0 F6000 X145.898 Y156.477
G1 F1200 X153.546 Y164.124 E48.22902
G0 F6000 X153.823 Y163.779
G1 F1200 X146.242 Y156.198 E48.62126
G0 F6000 X146.505 Y155.839
G1 F1200 X154.188 Y163.522 E49.01879
G0 F6000 X154.642 Y163.354
G1 F1200 X146.668 Y155.379 E49.43139
G0 F6000 X146.711 Y154.8
G1 F1200 X155.224 Y163.313 E49.87186
G0 F6000 X155.846 Y163.313
G1 F1200 X146.711 Y154.178 E50.34451
G0 F6000 X146.711 Y153.556
G1 F1200 X156.468 Y163.313 E50.84934
G0 F6000 X157.09 Y163.313
G1 F1200 X146.711 Y152.933 E51.38638
G0 F6000 X146.711 Y152.312
G1 F1200 X157.712 Y163.312 E51.95556
G0 F6000 X158.334 Y163.312
G1 F1200 X146.711 Y151.689 E52.55694
G0 F6000 X146.711 Y151.067
G1 F1200 X158.956 Y163.312 E53.1905
G0 F6000 X159.579 Y163.312
G1 F1200 X146.712 Y150.446 E53.85622
G0 F6000 X146.712 Y149.823
G1 F1200 X160.2 Y163.311 E54.5541
G0 F6000 X160.822 Y163.311
G1 F1200 X146.712 Y149.201 E55.28416
G0 F6000 X146.712 Y148.579
G1 F1200 X153.29 Y155.156 E55.62449
G0 F6000 X153.29 Y154.534
G1 F1200 X146.713 Y147.957 E55.96478
G0 F6000 X146.713 Y147.335
G1 F1200 X153.29 Y153.912 E56.30508
G0 F6000 X153.289 Y153.289
G1 F1200 X146.713 Y146.713 E56.64533
G0 F6000 X146.713 Y146.091
G1 F1200 X153.289 Y152.667 E56.98557
G0 F6000 X153.289 Y152.044
G1 F1200 X146.714 Y145.469 E57.32577
G0 F6000 X146.714 Y144.847
G1 F1200 X153.288 Y151.421 E57.66591
G0 F6000 X153.288 Y150.799
G1 F1200 X146.714 Y144.225 E58.00605
G0 F6000 X146.714 Y143.603
G1 F1200 X153.288 Y150.177 E58.3462
G0 F6000 X153.288 Y149.554
G1 F1200 X146.714 Y142.981 E58.68631
G0 F6000 X146.714 Y142.358
G1 F1200 X153.288 Y148.932 E59.02646
G0 F6000 X153.288 Y148.309
G1 F1200 X146.714 Y141.736 E59.36657
G0 F6000 X146.715 Y141.115
G1 F1200 X153.287 Y147.687 E59.70661
G0 F6000 X153.287 Y147.064
G1 F1200 X146.715 Y140.492 E60.04665
G0 F6000 X146.715 Y139.87
G1 F1200 X153.287 Y146.442 E60.38669
G0 F6000 X153.286 Y145.819
G1 F1200 X146.715 Y139.248 E60.72668
G0 F6000 X146.716 Y138.626
G1 F1200 X153.286 Y145.197 E61.06664
G0 F6000 X153.286 Y144.575
G1 F1200 X146.716 Y138.004 E61.4066
G0 F6000 X146.716 Y137.382
G1 F1200 X153.285 Y143.952 E61.74651
G0 F6000 X153.285 Y143.329
G1 F1200 X146.716 Y136.76 E62.0864
G0 F6000 X147.319 Y136.741
G1 F1200 X153.285 Y142.707 E62.39508
G0 F6000 X153.285 Y142.084
G1 F1200 X147.941 Y136.741 E62.67156
G0 F6000 X148.563 Y136.741
G1 F1200 X153.285 Y141.462 E62.91585
G0 F6000 X153.285 Y140.84
G1 F1200 X149.186 Y136.741 E63.12794
G0 F6000 X149.808 Y136.741
G1 F1200 X153.284 Y140.217 E63.30779
G0 F6000 X153.284 Y139.594
G1 F1200 X150.43 Y136.741 E63.45543
G0 F6000 X151.052 Y136.741
G1 F1200 X153.284 Y138.972 E63.57089
G0 F6000 X153.283 Y138.349
G1 F1200 X151.675 Y136.741 E63.65409
G0 F6000 X152.297 Y136.741
G1 F1200 X153.283 Y137.727 E63.7051
G0 F6000 X153.283 Y137.105
G1 F1200 X152.919 Y136.741 E63.72394
G1 F1500 E61.72394
G1 F300 Z0.4
G0 F6000 X154.867 Y156.734 Z0.4
G1 F300 Z0.2
G1 F1500 E63.72394
G1 F1200 X161.445 Y163.311 E64.06426
G0 F6000 X162.067 Y163.311
G1 F1200 X155.489 Y156.734 E64.40459
G0 F6000 X156.112 Y156.734
G1 F1200 X162.689 Y163.311 E64.74488
G0 F6000 X163.311 Y163.311
G1 F1200 X156.734 Y156.734 E65.08518
G0 F6000 X157.357 Y156.735
G1 F1200 X163.933 Y163.311 E65.42543
G0 F6000 X164.555 Y163.311
G1 F1200 X157.979 Y156.735 E65.76567
G0 F6000 X158.601 Y156.735
G1 F1200 X165.178 Y163.311 E66.10595
G0 F6000 X165.799 Y163.31
G1 F1200 X159.224 Y156.735 E66.44614
G0 F6000 X159.847 Y156.735
G1 F1200 X166.421 Y163.31 E66.78631
G0 F6000 X167.044 Y163.31
G1 F1200 X160.469 Y156.735 E67.1265
G0 F6000 X161.092 Y156.736
G1 F1200 X167.666 Y163.31 E67.46665
G0 F6000 X168.287 Y163.309
G1 F1200 X161.714 Y156.736 E67.80674
G0 F6000 X162.336 Y156.736
G1 F1200 X168.91 Y163.309 E68.14686
G0 F6000 X169.532 Y163.309
G1 F1200 X162.959 Y156.736 E68.48695
G0 F6000 X163.582 Y156.737
G1 F1200 X170.154 Y163.309 E68.82699
G0 F6000 X170.776 Y163.309
G1 F1200 X164.204 Y156.737 E69.16703
G0 F6000 X164.826 Y156.737
G1 F1200 X171.398 Y163.309 E69.50707
G0 F6000 X172.02 Y163.309
G1 F1200 X165.449 Y156.737 E69.84708
G0 F6000 X166.071 Y156.737
G1 F1200 X172.642 Y163.309 E70.18709
G0 F6000 X173.265 Y163.309
G1 F1200 X166.694 Y156.737 E70.52711
G0 F6000 X167.317 Y156.738
G1 F1200 X173.283 Y162.705 E70.83582
G0 F6000 X173.283 Y162.083
G1 F1200 X167.939 Y156.738 E71.11234
G0 F6000 X168.561 Y156.738
G1 F1200 X173.283 Y161.46 E71.35666
G0 F6000 X173.283 Y160.838
G1 F1200 X169.183 Y156.738 E71.5688
G0 F6000 X169.806 Y156.739
G1 F1200 X173.283 Y160.216 E71.7487
G0 F6000 X173.283 Y159.594
G1 F1200 X170.428 Y156.739 E71.89642
G0 F6000 X171.051 Y156.739
G1 F1200 X173.283 Y158.971 E72.01191
G0 F6000 X173.283 Y158.349
G1 F1200 X171.674 Y156.74 E72.09516
G0 F6000 X172.296 Y156.74
G1 F1200 X173.283 Y157.727 E72.14623
G0 F6000 X173.283 Y157.104
G1 F1200 X172.918 Y156.74 E72.16508
G1 F1500 E70.16508
G1 F300 Z0.4
G0 F6000 X145.284 Y163.33 Z0.4
G1 F300 Z0.2
G1 F1500 E72.16508
G1 F1200 X138.689 Y156.735 E72.50631
G0 F6000 X138.067 Y156.735
G1 F1200 X144.645 Y163.312 E72.84664
G0 F6000 X144.022 Y163.312
G1 F1200 X137.445 Y156.735 E73.18694
G0 F6000 X136.823 Y156.735
G1 F1200 X143.4 Y163.312 E73.52723
G0 F6000 X142.778 Y163.312
G1 F1200 X136.201 Y156.735 E73.86753
G0 F6000 X135.579 Y156.735
G1 F1200 X142.155 Y163.311 E74.20778
G0 F6000 X141.533 Y163.311
G1 F1200 X134.956 Y156.735 E74.54805
G0 F6000 X134.335 Y156.736
G1 F1200 X140.91 Y163.311 E74.88825
G0 F6000 X140.288 Y163.311
G1 F1200 X133.713 Y156.736 E75.22844
G0 F6000 X133.09 Y156.736
G1 F1200 X139.665 Y163.311 E75.56863
G0 F6000 X139.043 Y163.311
G1 F1200 X132.468 Y156.736 E75.90883
G0 F6000 X131.847 Y156.737
G1 F1200 X138.421 Y163.311 E76.24897
G0 F6000 X137.798 Y163.311
G1 F1200 X131.224 Y156.737 E76.58912
G0 F6000 X130.602 Y156.737
G1 F1200 X137.175 Y163.31 E76.92921
G0 F6000 X136.553 Y163.31
G1 F1200 X129.98 Y156.737 E77.2693
G0 F6000 X129.358 Y156.737
G1 F1200 X135.931 Y163.31 E77.60939
G0 F6000 X135.309 Y163.31
G1 F1200 X128.736 Y156.737 E77.94948
G0 F6000 X128.114 Y156.737
G1 F1200 X134.686 Y163.31 E78.28955
G0 F6000 X134.063 Y163.309
G1 F1200 X127.492 Y156.737 E78.62956
G0 F6000 X126.869 Y156.737
G1 F1200 X133.441 Y163.309 E78.9696
G0 F6000 X132.819 Y163.309
G1 F1200 X126.715 Y157.206 E79.2854
G0 F6000 X126.715 Y157.828
G1 F1200 X132.197 Y163.309 E79.56901
G0 F6000 X131.574 Y163.309
G1 F1200 X126.715 Y158.45 E79.82042
G0 F6000 X126.715 Y159.072
G1 F1200 X130.951 Y163.309 E80.03962
G0 F6000 X130.329 Y163.309
G1 F1200 X126.715 Y159.695 E80.22661
