;FLAVOR:Marlin
;TIME:13951
;Filament used: 9.18122m
;Layer height: 0.2
;MINX:61.5
;MINY:76.046
;MINZ:0.2
;MAXX:173.5
;MAXY:156.405
;MAXZ:34.2
;Generated with Cura_SteamEngine 5.2.1
M140 S60
M105
M190 S60
M104 S210
M105
M109 S210
M82 ;absolute extrusion mode
; Ender 3 Custom Start G-code
G92 E0 ; Reset Extruder
G28 ; Home all axes
G1 Z2.0 F3000 ; Move Z Axis up little to prevent scratching of Heat Bed
G1 X0.1 Y20 Z0.3 F5000.0 ; Move to start position
G1 X0.1 Y200.0 Z0.3 F1500.0 E15 ; Draw the first line
G1 X0.4 Y200.0 Z0.3 F5000.0 ; Move to side a little
G1 X0.4 Y20 Z0.3 F1500.0 E30 ; Draw the second line
G92 E0 ; Reset Extruder
G1 Z2.0 F3000 ; Move Z Axis up little to prevent scratching of Heat Bed
G1 X5 Y20 Z0.3 F5000.0 ; Move over to prevent blob squish
G92 E0
G92 E0
G1 F2700 E-5
;LAYER_COUNT:171
;LAYER:0
M107
G0 F6000 X65.386 Y78.673 Z0.2
;TYPE:SKIRT
G1 F2700 E0
G1 F1200 X66.126 Y78.097 E0.03119
G1 X66.912 Y77.585 E0.06239
G1 X67.739 Y77.143 E0.09358
G1 X68.601 Y76.773 E0.12478
G1 X69.491 Y76.477 E0.15597
G1 X70.403 Y76.259 E0.18716
G1 X71.33 Y76.118 E0.21835
G1 X72.201 Y76.059 E0.24738
G1 X72.83 Y76.046 E0.26831
G1 X161.951 Y76.047 E3.23249
G1 X162.649 Y76.057 E3.2557
G1 X163.585 Y76.111 E3.28689
G1 X164.513 Y76.243 E3.31806
G1 X165.427 Y76.455 E3.34927
G1 X166.319 Y76.744 E3.38046
G1 X167.184 Y77.107 E3.41166
G1 X168.014 Y77.543 E3.44284
G1 X168.805 Y78.048 E3.47405
G1 X169.549 Y78.619 E3.50525
G1 X170.242 Y79.251 E3.53644
G1 X170.879 Y79.939 E3.56763
G1 X171.454 Y80.68 E3.59882
G1 X171.965 Y81.466 E3.63
G1 X172.407 Y82.294 E3.66122
G1 X172.776 Y83.156 E3.69241
G1 X173.071 Y84.046 E3.72359
G1 X173.289 Y84.958 E3.75478
G1 X173.429 Y85.886 E3.786
G1 X173.487 Y86.747 E3.8147
G1 X173.5 Y87.376 E3.83562
G1 X173.499 Y144.805 E5.74572
G1 X173.49 Y145.532 E5.7699
G1 X173.439 Y146.469 E5.80111
G1 X173.307 Y147.397 E5.83229
G1 X173.098 Y148.311 E5.86347
G1 X172.811 Y149.204 E5.89467
G1 X172.449 Y150.07 E5.92589
G1 X172.015 Y150.901 E5.95707
G1 X171.511 Y151.692 E5.98826
G1 X170.942 Y152.437 E6.01944
G1 X170.311 Y153.132 E6.05067
G1 X169.624 Y153.77 E6.08185
G1 X168.885 Y154.347 E6.11303
G1 X168.099 Y154.859 E6.14423
G1 X167.273 Y155.302 E6.17541
G1 X166.411 Y155.674 E6.20663
G1 X165.522 Y155.97 E6.2378
G1 X164.61 Y156.19 E6.269
G1 X163.683 Y156.331 E6.30019
G1 X162.815 Y156.391 E6.32913
G1 X162.186 Y156.405 E6.35005
G1 X73.049 Y156.405 E9.31476
G1 X72.351 Y156.395 E9.33798
G1 X71.415 Y156.341 E9.36916
G1 X70.487 Y156.209 E9.40034
G1 X69.573 Y155.997 E9.43154
G1 X68.681 Y155.708 E9.46273
G1 X67.816 Y155.345 E9.49393
G1 X66.986 Y154.909 E9.52511
G1 X66.195 Y154.404 E9.55633
G1 X65.451 Y153.833 E9.58752
G1 X64.758 Y153.201 E9.61872
G1 X64.121 Y152.513 E9.6499
G1 X63.546 Y151.772 E9.6811
G1 X63.035 Y150.986 E9.71228
G1 X62.593 Y150.158 E9.7435
G1 X62.224 Y149.296 E9.77468
G1 X61.929 Y148.406 E9.80587
G1 X61.711 Y147.494 E9.83706
G1 X61.571 Y146.566 E9.86827
G1 X61.513 Y145.701 E9.8971
G1 X61.5 Y145.072 E9.91803
G1 X61.501 Y87.571 E11.83052
G1 X61.51 Y86.906 E11.85264
G1 X61.563 Y85.97 E11.88382
G1 X61.695 Y85.041 E11.91503
G1 X61.906 Y84.127 E11.94623
G1 X62.194 Y83.235 E11.97741
G1 X62.557 Y82.37 E12.00861
G1 X62.992 Y81.539 E12.0398
G1 X63.496 Y80.749 E12.07097
G1 X64.066 Y80.004 E12.10217
G1 X64.698 Y79.31 E12.13339
G1 X65.386 Y78.673 E12.16458
G0 F6000 X65.774 Y78.869
G1 F1200 X66.51 Y78.316 E12.1952
G1 X67.291 Y77.828 E12.22583
G1 X68.111 Y77.41 E12.25644
G1 X68.965 Y77.065 E12.28707
G1 X69.845 Y76.795 E12.31769
G1 X70.745 Y76.603 E12.3483
G1 X71.659 Y76.489 E12.37893
G1 X72.212 Y76.459 E12.39735
G1 X72.83 Y76.446 E12.41791
G1 X161.945 Y76.447 E15.38189
G1 X162.643 Y76.457 E15.4051
G1 X163.562 Y76.51 E15.43572
G1 X164.473 Y76.643 E15.46634
G1 X165.369 Y76.854 E15.49696
G1 X166.243 Y77.142 E15.52757
G1 X167.09 Y77.505 E15.55822
G1 X167.901 Y77.94 E15.58882
G1 X168.671 Y78.444 E15.61943
G1 X169.395 Y79.013 E15.65006
G1 X170.067 Y79.643 E15.6807
G1 X170.682 Y80.328 E15.71132
G1 X171.235 Y81.064 E15.74194
G1 X171.722 Y81.845 E15.77255
G1 X172.139 Y82.666 E15.80317
G1 X172.484 Y83.52 E15.83381
G1 X172.753 Y84.4 E15.86441
G1 X172.945 Y85.301 E15.89506
G1 X173.058 Y86.214 E15.92565
G1 X173.087 Y86.758 E15.94377
G1 X173.1 Y87.376 E15.96433
G1 X173.099 Y144.8 E17.87426
G1 X173.09 Y145.527 E17.89844
G1 X173.039 Y146.446 E17.92906
G1 X172.908 Y147.358 E17.9597
G1 X172.698 Y148.254 E17.99031
G1 X172.412 Y149.129 E18.02093
G1 X172.051 Y149.976 E18.05155
G1 X171.617 Y150.788 E18.08217
G1 X171.115 Y151.56 E18.1128
G1 X170.547 Y152.285 E18.14343
G1 X169.919 Y152.958 E18.17405
G1 X169.235 Y153.574 E18.20467
G1 X168.5 Y154.128 E18.23528
G1 X167.72 Y154.617 E18.2659
G1 X166.9 Y155.036 E18.29653
G1 X166.047 Y155.382 E18.32714
G1 X165.167 Y155.653 E18.35777
G1 X164.267 Y155.846 E18.38838
G1 X163.353 Y155.961 E18.41902
G1 X162.804 Y155.991 E18.43731
G1 X162.186 Y156.005 E18.45787
G1 X73.055 Y156.005 E21.42238
G1 X72.357 Y155.995 E21.4456
G1 X71.438 Y155.942 E21.47621
G1 X70.527 Y155.809 E21.50683
G1 X69.631 Y155.598 E21.53745
G1 X68.757 Y155.31 E21.56806
G1 X67.91 Y154.947 E21.59871
G1 X67.099 Y154.512 E21.62932
G1 X66.329 Y154.008 E21.65992
G1 X65.605 Y153.439 E21.69055
G1 X64.933 Y152.809 E21.72119
G1 X64.318 Y152.124 E21.75181
G1 X63.765 Y151.388 E21.78243
G1 X63.278 Y150.607 E21.81304
G1 X62.861 Y149.786 E21.84367
G1 X62.516 Y148.932 E21.8743
G1 X62.247 Y148.052 E21.90491
G1 X62.055 Y147.151 E21.93555
G1 X61.942 Y146.238 E21.96614
G1 X61.913 Y145.69 E21.9844
G1 X61.9 Y145.072 E22.00496
G1 X61.901 Y87.577 E23.91725
G1 X61.91 Y86.912 E23.93937
G1 X61.962 Y85.992 E23.97002
G1 X62.094 Y85.081 E24.00063
G1 X62.305 Y84.185 E24.03125
G1 X62.592 Y83.31 E24.06188
G1 X62.955 Y82.464 E24.09249
G1 X63.389 Y81.652 E24.12312
G1 X63.892 Y80.881 E24.15374
G1 X64.461 Y80.157 E24.18436
G1 X65.089 Y79.485 E24.21495
G1 X65.774 Y78.869 E24.2456
G0 F6000 X66.162 Y79.07
G1 F1200 X66.894 Y78.54 E24.27565
G1 X67.669 Y78.077 E24.30568
G1 X68.482 Y77.684 E24.33571
G1 X69.327 Y77.364 E24.36577
G1 X70.196 Y77.121 E24.39578
G1 X71.084 Y76.955 E24.42582
G1 X72.223 Y76.859 E24.46384
G1 X72.83 Y76.846 E24.48404
G1 X161.939 Y76.847 E27.44781
G1 X162.637 Y76.857 E27.47103
G1 X163.539 Y76.91 E27.50108
G1 X164.432 Y77.042 E27.53111
G1 X165.31 Y77.253 E27.56114
G1 X166.166 Y77.541 E27.59118
G1 X166.993 Y77.903 E27.62121
G1 X167.785 Y78.338 E27.65126
G1 X168.536 Y78.84 E27.6813
G1 X169.239 Y79.407 E27.71134
G1 X169.889 Y80.034 E27.74138
G1 X170.481 Y80.716 E27.77142
G1 X171.011 Y81.447 E27.80145
G1 X171.473 Y82.223 E27.83149
G1 X171.866 Y83.036 E27.86152
G1 X172.184 Y83.881 E27.89155
G1 X172.427 Y84.751 E27.9216
G1 X172.592 Y85.639 E27.95164
G1 X172.687 Y86.769 E27.98935
G1 X172.7 Y87.376 E28.00955
G1 X172.699 Y144.795 E29.91931
G1 X172.69 Y145.522 E29.94349
G1 X172.639 Y146.424 E29.97354
G1 X172.508 Y147.318 E30.00359
G1 X172.299 Y148.196 E30.03361
G1 X172.013 Y149.053 E30.06366
G1 X171.652 Y149.881 E30.0937
G1 X171.22 Y150.673 E30.12371
G1 X170.719 Y151.425 E30.15376
G1 X170.153 Y152.129 E30.18381
G1 X169.528 Y152.78 E30.21382
G1 X168.847 Y153.374 E30.24388
G1 X168.116 Y153.905 E30.27393
G1 X167.342 Y154.369 E30.30394
G1 X166.529 Y154.763 E30.33399
G1 X165.685 Y155.083 E30.36401
G1 X164.815 Y155.328 E30.39408
G1 X163.928 Y155.494 E30.42409
G1 X162.792 Y155.592 E30.46201
G1 X162.186 Y155.605 E30.48217
G1 X73.061 Y155.605 E33.44648
G1 X72.363 Y155.595 E33.4697
G1 X71.461 Y155.542 E33.49975
G1 X70.568 Y155.41 E33.52978
G1 X69.69 Y155.199 E33.55981
G1 X68.834 Y154.911 E33.58985
G1 X68.007 Y154.549 E33.61988
G1 X67.215 Y154.114 E33.64993
G1 X66.464 Y153.612 E33.67998
G1 X65.761 Y153.045 E33.71001
G1 X65.111 Y152.418 E33.74005
G1 X64.519 Y151.736 E33.77009
G1 X63.989 Y151.005 E33.80012
G1 X63.527 Y150.229 E33.83016
G1 X63.134 Y149.416 E33.86019
G1 X62.816 Y148.571 E33.89022
G1 X62.573 Y147.701 E33.92027
G1 X62.408 Y146.813 E33.95031
G1 X62.313 Y145.679 E33.98816
G1 X62.3 Y145.072 E34.00835
G1 X62.301 Y87.582 E35.92047
G1 X62.31 Y86.917 E35.94259
G1 X62.362 Y86.015 E35.97264
G1 X62.494 Y85.122 E36.00267
G1 X62.704 Y84.244 E36.03269
G1 X62.991 Y83.387 E36.06275
G1 X63.353 Y82.56 E36.09278
G1 X63.786 Y81.768 E36.1228
G1 X64.288 Y81.017 E36.15285
G1 X64.855 Y80.313 E36.18291
G1 X65.481 Y79.663 E36.21293
G1 X66.162 Y79.07 E36.24296
G1 F2700 E31.24296
;MESH:Back_Block.stl
G0 F6000 X115.475 Y114.925
G0 X116.18 Y116.129
;TYPE:WALL-INNER
G1 F2700 E36.24296
G1 F1200 X115.894 Y115.747 E36.25883
G1 X115.708 Y115.301 E36.2749
G1 X115.645 Y114.821 E36.29101
G1 X115.709 Y114.353 E36.30672
G1 X115.721 Y114.311 E36.30817
G1 X115.888 Y113.901 E36.32289
G1 X116.189 Y113.506 E36.33941
G1 X116.562 Y113.22 E36.35505
G1 X116.994 Y113.038 E36.37064
G1 X117.499 Y112.968 E36.38759
G1 X117.983 Y113.031 E36.40383
G1 X118.437 Y113.22 E36.42018
G1 X118.809 Y113.505 E36.43577
G1 X119.109 Y113.891 E36.45203
G1 X119.291 Y114.353 E36.46855
G1 X119.354 Y114.821 E36.48425
G1 X119.294 Y115.291 E36.50001
G1 X119.103 Y115.761 E36.51688
G1 X118.799 Y116.147 E36.53323
G1 X118.41 Y116.44 E36.54942
G1 X117.984 Y116.609 E36.56467
G1 X117.5 Y116.678 E36.58093
G1 X117.016 Y116.609 E36.59719
G1 X116.589 Y116.44 E36.61246
G1 X116.18 Y116.129 E36.62955
G1 F2700 E31.62955
G0 F6000 X115.865 Y115.259
G0 X115.812 Y114.866
G0 X116.07 Y113.499
G1 F2700 E36.62955
G0 F6000 X116.469 Y113.799
;TYPE:WALL-OUTER
G1 F1200 X116.772 Y113.562 E36.64235
G1 X117.134 Y113.418 E36.6553
G1 X117.486 Y113.372 E36.66711
G1 X117.866 Y113.418 E36.67984
G1 X118.232 Y113.567 E36.69299
G1 X118.528 Y113.794 E36.70539
G1 X118.754 Y114.088 E36.71773
G1 X118.898 Y114.433 E36.73016
G1 X118.95 Y114.803 E36.74259
G1 X118.905 Y115.183 E36.75531
G1 X118.761 Y115.544 E36.76824
G1 X118.529 Y115.847 E36.78093
G1 X118.24 Y116.072 E36.79312
G1 X117.88 Y116.223 E36.8061
G1 X117.518 Y116.272 E36.81825
G1 X117.12 Y116.223 E36.83159
G1 X116.76 Y116.072 E36.84457
G1 X116.48 Y115.856 E36.85633
G1 X116.248 Y115.559 E36.86887
G1 X116.103 Y115.212 E36.88138
G1 X116.05 Y114.841 E36.89384
G1 X116.102 Y114.433 E36.90752
G1 X116.246 Y114.088 E36.91996
G1 X116.469 Y113.799 E36.9321
G1 F2700 E31.9321
G0 F6000 X116.07 Y113.499
G0 X115.806 Y114.822
G0 X115.865 Y115.259
G0 X116.033 Y115.667
G0 X116.303 Y116.019
G0 X117.569 Y116.851
G0 X118.124 Y127.892
G0 X118.82 Y128.515
;TYPE:WALL-INNER
G1 F2700 E36.9321
G1 F1200 X119.106 Y128.897 E36.94797
G1 X119.29 Y129.337 E36.96383
G1 X119.348 Y129.771 E36.97839
G1 X119.349 Y129.866 E36.98155
G1 X119.292 Y130.3 E36.99611
G1 X119.104 Y130.759 E37.01261
G1 X118.805 Y131.143 E37.0288
G1 X118.428 Y131.429 E37.04454
G1 X117.984 Y131.615 E37.06055
G1 X117.476 Y131.675 E37.07756
G1 X117.018 Y131.609 E37.09295
G1 X116.563 Y131.426 E37.10926
G1 X116.194 Y131.141 E37.12477
G1 X115.896 Y130.76 E37.14086
G1 X115.708 Y130.301 E37.15736
G1 X115.646 Y129.83 E37.17316
G1 X115.711 Y129.33 E37.18993
G1 X115.898 Y128.882 E37.20607
G1 X116.201 Y128.497 E37.22237
G1 X116.59 Y128.204 E37.23857
G1 X117.016 Y128.035 E37.25381
G1 X117.5 Y127.966 E37.27007
G1 X117.984 Y128.035 E37.28633
G1 X118.411 Y128.204 E37.3016
G1 X118.82 Y128.515 E37.31869
G1 F2700 E32.31869
G0 F6000 X119.135 Y129.384
G0 X119.188 Y129.778
G0 X118.929 Y131.149
G1 F2700 E37.31869
G0 F6000 X118.528 Y130.851
;TYPE:WALL-OUTER
G1 F1200 X118.22 Y131.084 E37.33154
G1 X117.862 Y131.227 E37.34436
G1 X117.499 Y131.275 E37.35654
G1 X117.121 Y131.223 E37.36923
G1 X116.78 Y131.084 E37.38148
G1 X116.472 Y130.851 E37.39432
G1 X116.237 Y130.541 E37.40726
G1 X116.097 Y130.2 E37.41952
G1 X116.05 Y129.837 E37.4317
G1 X116.099 Y129.444 E37.44487
G1 X116.239 Y129.1 E37.45722
G1 X116.471 Y128.797 E37.46991
G1 X116.76 Y128.572 E37.4821
G1 X117.12 Y128.421 E37.49508
G1 X117.482 Y128.372 E37.50723
G1 X117.88 Y128.421 E37.52057
G1 X118.24 Y128.572 E37.53355
G1 X118.52 Y128.788 E37.54531
G1 X118.752 Y129.085 E37.55785
G1 X118.901 Y129.444 E37.57078
G1 X118.95 Y129.837 E37.58395
G1 X118.904 Y130.186 E37.59566
G1 X118.763 Y130.541 E37.60836
G1 X118.528 Y130.851 E37.6213
G1 F2700 E32.6213
G0 F6000 X118.929 Y131.149
G0 X117.938 Y131.457
G0 X117.5 Y131.516
G0 X115.996 Y131.184
G0 X94.873 Y144.605
G0 X73.1 Y144.805
;TYPE:WALL-INNER
G1 F2700 E37.6213
G1 F1200 X161.9 Y144.805 E40.5748
G1 X161.9 Y109.256 E41.75716
G1 X161.9 Y87.646 E42.47592
G1 X73.101 Y87.647 E45.42938
G1 X73.1 Y144.805 E47.33047
G0 F6000 X72.7 Y145.205
;TYPE:WALL-OUTER
G1 F1200 X162.3 Y145.205 E50.31057
G1 X162.3 Y109.256 E51.50624
G1 X162.3 Y87.246 E52.2383
G1 X72.701 Y87.247 E55.21837
G1 X72.7 Y145.205 E57.14606
G0 F6000 X72.97 Y144.936
G0 X73.461 Y144.705
G0 X73.461 Y144.444
;TYPE:SKIN
G1 F1200 X161.54 Y144.445 E60.07558
G1 X161.54 Y109.252 E61.24611
G1 X161.54 Y88.006 E61.95275
G1 X73.462 Y88.008 E64.88224
G1 X73.461 Y144.444 E66.75931
G1 F2700 E61.75931
G0 F6000 X73.461 Y144.705
G0 X94.873 Y144.605
G0 X115.996 Y131.184
G0 X119.716 Y129.794
G1 F2700 E66.75931
G1 F1200 X119.716 Y129.849 E66.76114
G1 X119.645 Y130.381 E66.77899
G1 X119.423 Y130.935 E66.79884
G1 X119.067 Y131.393 E66.81813
G1 X118.61 Y131.742 E66.83726
G1 X118.051 Y131.972 E66.85736
G1 X117.465 Y132.038 E66.87698
G1 X116.924 Y131.958 E66.89517
G1 X116.385 Y131.742 E66.91448
G1 X115.916 Y131.375 E66.93429
G1 X115.584 Y130.943 E66.95241
G1 X115.358 Y130.402 E66.97191
G1 X115.286 Y129.816 E66.99154
G1 X115.364 Y129.232 E67.01114
G1 X115.578 Y128.708 E67.02997
G1 X115.935 Y128.252 E67.04923
G1 X116.403 Y127.893 E67.06885
G1 X116.921 Y127.686 E67.0874
G1 X117.503 Y127.602 E67.10696
G1 X118.08 Y127.686 E67.12635
G1 X118.622 Y127.908 E67.14583
G1 X119.082 Y128.267 E67.16524
G1 X119.418 Y128.707 E67.18365
G1 X119.631 Y129.208 E67.20176
G1 X119.716 Y129.794 E67.22145
G1 F2700 E62.22145
G0 F6000 X119.437 Y129.67
G0 X118.124 Y127.892
G0 X116.876 Y116.752
G0 X115.571 Y113.717
G1 F2700 E67.22145
G1 F1200 X115.961 Y113.225 E67.24234
G1 X116.402 Y112.895 E67.26066
G1 X116.926 Y112.679 E67.27951
G1 X117.487 Y112.607 E67.29832
G1 X118.052 Y112.674 E67.31724
G1 X118.621 Y112.904 E67.33765
G1 X119.059 Y113.245 E67.35612
G1 X119.403 Y113.682 E67.37461
G1 X119.637 Y114.223 E67.39422
G1 X119.715 Y114.81 E67.41391
G1 X119.642 Y115.399 E67.43365
G1 X119.421 Y115.938 E67.45303
G1 X119.059 Y116.399 E67.47253
G1 X118.623 Y116.735 E67.49083
G1 X118.104 Y116.954 E67.50957
G1 X117.498 Y117.042 E67.52994
G1 X116.921 Y116.958 E67.54933
G1 X116.401 Y116.749 E67.56797
G1 X115.93 Y116.389 E67.58769
G1 X115.585 Y115.933 E67.60671
G1 X115.362 Y115.413 E67.62552
G1 X115.285 Y114.832 E67.64502
G1 X115.36 Y114.26 E67.6642
G1 X115.571 Y113.717 E67.68358
G1 F2700 E62.68358
G0 F6000 X115.756 Y113.955
G0 X115.475 Y114.719
G0 X94.873 Y144.605
G0 X74.098 Y144.243
G1 F2700 E67.68358
G1 F1200 X73.661 Y143.806 E67.70414
G0 F6000 X73.661 Y143.24
G1 F1200 X74.664 Y144.243 E67.75131
G0 F6000 X75.229 Y144.243
G1 F1200 X73.661 Y142.675 E67.82507
G0 F6000 X73.661 Y142.109
G1 F1200 X75.795 Y144.243 E67.92544
G0 F6000 X76.361 Y144.243
G1 F1200 X73.661 Y141.543 E68.05244
G0 F6000 X73.661 Y140.978
G1 F1200 X76.926 Y144.243 E68.20602
G0 F6000 X77.492 Y144.243
G1 F1200 X73.661 Y140.412 E68.38622
G0 F6000 X73.661 Y139.846
G1 F1200 X78.058 Y144.243 E68.59304
G0 F6000 X78.623 Y144.243
G1 F1200 X73.661 Y139.28 E68.82646
G0 F6000 X73.661 Y138.715
G1 F1200 X79.189 Y144.243 E69.08648
G0 F6000 X79.755 Y144.243
G1 F1200 X73.661 Y138.149 E69.37312
G0 F6000 X73.661 Y137.583
G1 F1200 X80.32 Y144.243 E69.68637
G0 F6000 X80.886 Y144.243
G1 F1200 X73.661 Y137.018 E70.02621
G0 F6000 X73.661 Y136.452
G1 F1200 X81.452 Y144.243 E70.39267
G0 F6000 X82.018 Y144.243
G1 F1200 X73.661 Y135.886 E70.78576
G0 F6000 X73.661 Y135.321
G1 F1200 X82.583 Y144.243 E71.20542
G0 F6000 X83.149 Y144.243
G1 F1200 X73.661 Y134.755 E71.65171
G0 F6000 X73.661 Y134.189
G1 F1200 X83.715 Y144.243 E72.12462
G0 F6000 X84.28 Y144.243
G1 F1200 X73.661 Y133.624 E72.62411
G0 F6000 X73.661 Y133.058
G1 F1200 X84.846 Y144.243 E73.15021
G0 F6000 X85.412 Y144.243
G1 F1200 X73.661 Y132.492 E73.70294
G0 F6000 X73.661 Y131.927
G1 F1200 X85.977 Y144.243 E74.28225
G0 F6000 X86.543 Y144.243
G1 F1200 X73.661 Y131.361 E74.88818
G0 F6000 X73.661 Y130.795
G1 F1200 X87.109 Y144.243 E75.52073
