;FLAVOR:Marlin
;TIME:12563
;Filament used: 8.33855m
;Layer height: 0.2
;MINX:69.024
;MINY:66.902
;MINZ:0.2
;MAXX:163.069
;MAXY:156.332
;MAXZ:46.4
;Generated with Cura_SteamEngine 5.2.1
M140 S55
M105
M190 S55
M104 S207
M105
M109 S207
M82 ;absolute extrusion mode
; Ender 3 Custom Start G-code
G92 E0 ; Reset Extruder
G28 ; Home all axes
G1 Z2.0 F3000 ; Move Z Axis up little to prevent scratching of Heat Bed
G1 X0.1 Y20 Z0.3 F5000.0 ; Move to start position
G1 X0.1 Y200.0 Z0.3 F1500.0 E15 ; Draw the first line
G1 X0.4 Y200.0 Z0.3 F5000.0 ; Move to side a little
G1 X0.4 Y20 Z0.3 F1500.0 E30 ; Draw the second line
G92 E0 ; Reset Extruder
G1 Z2.0 F3000 ; Move Z Axis up little to prevent scratching of Heat Bed
G1 X5 Y20 Z0.3 F5000.0 ; Move over to prevent blob squish
G92 E0
G92 E0
G1 F2700 E-5
;LAYER_COUNT:232
;LAYER:0
M107
G0 F6000 X94.915 Y71.669 Z0.2
;TYPE:SKIRT
G1 F2700 E0
G1 F1200 X95.48 Y70.92 E0.0312
G1 X96.107 Y70.223 E0.06239
G1 X96.791 Y69.581 E0.09359
G1 X97.527 Y69 E0.12478
G1 X98.31 Y68.484 E0.15596
G1 X99.134 Y68.036 E0.18716
G1 X99.994 Y67.66 E0.21838
G1 X100.882 Y67.359 E0.24956
G1 X101.792 Y67.134 E0.28074
G1 X102.719 Y66.988 E0.31195
G1 X103.779 Y66.919 E0.34728
G1 X104.839 Y66.902 E0.38254
G1 X126.526 Y66.903 E1.10386
G1 X127.231 Y66.914 E1.12731
G1 X128.167 Y66.969 E1.15849
G1 X129.095 Y67.103 E1.18968
G1 X130.009 Y67.316 E1.22089
G1 X130.901 Y67.606 E1.25209
G1 X131.765 Y67.97 E1.28327
G1 X132.822 Y68.544 E1.32328
G1 X133.577 Y69.009 E1.35277
G1 X134.122 Y69.328 E1.37377
G1 X135.111 Y69.95 E1.41263
G1 X136.116 Y70.553 E1.45161
G1 X136.956 Y71.111 E1.48516
G1 X137.353 Y71.402 E1.50153
G1 X138.305 Y72.186 E1.54255
G1 X138.689 Y72.542 E1.55996
G1 X139.856 Y73.66 E1.61371
G1 X141.731 Y75.355 E1.69778
G1 X143.638 Y76.984 E1.7812
G1 X145.582 Y78.552 E1.86427
G1 X147.606 Y80.092 E1.94886
G1 X149.651 Y81.559 E2.03257
G1 X151.734 Y82.966 E2.11617
G1 X153.837 Y84.3 E2.199
G1 X156.081 Y85.637 E2.28588
G1 X157.497 Y86.444 E2.34009
G1 X158.291 Y86.943 E2.37128
G1 X159.04 Y87.507 E2.40246
G1 X159.738 Y88.134 E2.43367
G1 X160.38 Y88.817 E2.46485
G1 X160.962 Y89.553 E2.49606
G1 X161.479 Y90.336 E2.52726
G1 X161.927 Y91.16 E2.55846
G1 X162.303 Y92.019 E2.58965
G1 X162.605 Y92.907 E2.62084
G1 X162.83 Y93.817 E2.65202
G1 X162.977 Y94.743 E2.68321
G1 X163.046 Y95.75 E2.71678
G1 X163.067 Y96.758 E2.75031
G1 X163.069 Y97.421 E2.77236
G1 X163.059 Y97.674 E2.78078
G1 X163.058 Y139.792 E4.18163
G1 X163.048 Y140.519 E4.20582
G1 X162.995 Y141.456 E4.23703
G1 X162.863 Y142.384 E4.26821
G1 X162.652 Y143.298 E4.29941
G1 X162.363 Y144.19 E4.33059
G1 X162 Y145.055 E4.36179
G1 X161.565 Y145.886 E4.39299
G1 X161.06 Y146.676 E4.42418
G1 X160.49 Y147.421 E4.45537
G1 X159.859 Y148.115 E4.48657
G1 X159.17 Y148.752 E4.51778
G1 X158.43 Y149.328 E4.54897
G1 X157.644 Y149.839 E4.58015
G1 X156.817 Y150.281 E4.61134
G1 X155.955 Y150.651 E4.64254
G1 X155.065 Y150.946 E4.67373
G1 X154.153 Y151.165 E4.70492
G1 X153.226 Y151.305 E4.7361
G1 X152.558 Y151.356 E4.75839
G1 X150.276 Y151.462 E4.83437
G1 X147.779 Y151.642 E4.91763
G1 X145.241 Y151.898 E5.00248
G1 X142.772 Y152.217 E5.08528
G1 X140.268 Y152.613 E5.1696
G1 X137.789 Y153.078 E5.25349
G1 X135.35 Y153.605 E5.33648
G1 X132.912 Y154.208 E5.42001
G1 X130.444 Y154.891 E5.50518
G1 X128.072 Y155.62 E5.58772
G1 X127.534 Y155.793 E5.60651
G1 X126.63 Y156.042 E5.6377
G1 X125.708 Y156.213 E5.66889
G1 X124.497 Y156.317 E5.70932
G1 X123.834 Y156.332 E5.73137
G1 X104.394 Y156.331 E6.37795
G1 X103.695 Y156.321 E6.4012
G1 X102.758 Y156.267 E6.43242
G1 X101.551 Y156.079 E6.47305
G1 X100.384 Y155.829 E6.51274
G1 X97.883 Y155.328 E6.59758
G1 X95.42 Y154.907 E6.68069
G1 X92.892 Y154.548 E6.76561
G1 X90.411 Y154.267 E6.84866
G1 X87.895 Y154.053 E6.93264
G1 X85.381 Y153.912 E7.01639
G1 X83.378 Y153.855 E7.08304
G1 X82.265 Y153.803 E7.12009
G1 X81.331 Y153.719 E7.15129
G1 X80.68 Y153.612 E7.17323
G1 X80.276 Y153.533 E7.18692
G1 X79.364 Y153.313 E7.21812
G1 X78.877 Y153.162 E7.23508
G1 X78.479 Y153.028 E7.24905
G1 X77.604 Y152.691 E7.28024
G1 X77.123 Y152.468 E7.29787
G1 X76.754 Y152.286 E7.31155
G1 X75.932 Y151.836 E7.34272
G1 X75.5 Y151.562 E7.35974
G1 X75.146 Y151.325 E7.37391
G1 X74.39 Y150.77 E7.4051
G1 X73.973 Y150.418 E7.42325
G1 X73.658 Y150.139 E7.43725
G1 X72.671 Y149.147 E7.48379
G1 X72.406 Y148.844 E7.49718
G1 X71.819 Y148.112 E7.52838
G1 X71.533 Y147.704 E7.54496
G1 X71.309 Y147.368 E7.55839
G1 X70.823 Y146.566 E7.58958
G1 X70.603 Y146.145 E7.60538
G1 X70.409 Y145.753 E7.61992
G1 X70.029 Y144.896 E7.6511
G1 X69.832 Y144.353 E7.67032
G1 X69.705 Y143.972 E7.68367
G1 X69.35 Y142.625 E7.73001
G1 X69.269 Y142.215 E7.74391
G1 X69.095 Y140.956 E7.78618
G1 X69.046 Y140.082 E7.81529
G1 X69.024 Y138.783 E7.8585
G1 X69.025 Y108.478 E8.86645
G1 X69.043 Y107.628 E8.89473
G1 X69.072 Y107.011 E8.91527
G1 X69.156 Y106.076 E8.9465
G1 X69.266 Y105.41 E8.96895
G1 X69.347 Y104.997 E8.98295
G1 X69.566 Y104.085 E9.01414
G1 X69.721 Y103.59 E9.0314
G1 X69.859 Y103.182 E9.04572
G1 X70.197 Y102.307 E9.07692
G1 X70.429 Y101.809 E9.09519
G1 X70.607 Y101.451 E9.10849
G1 X71.3 Y100.252 E9.15455
G1 X71.533 Y99.902 E9.16853
G1 X72.086 Y99.145 E9.19972
G1 X72.431 Y98.732 E9.21761
G1 X72.731 Y98.391 E9.23272
G1 X73.38 Y97.714 E9.26391
G1 X73.867 Y97.275 E9.28572
G1 X74.376 Y96.843 E9.30792
G1 X76.313 Y95.145 E9.3936
G1 X78.158 Y93.436 E9.47724
G1 X79.955 Y91.671 E9.56102
G1 X81.713 Y89.845 E9.64533
G1 X83.384 Y88.008 E9.72792
G1 X85.063 Y86.054 E9.81361
G1 X86.617 Y84.14 E9.89561
G1 X88.17 Y82.109 E9.98065
G1 X89.619 Y80.102 E10.06298
G1 X91.06 Y77.982 E10.14824
G1 X92.397 Y75.887 E10.2309
G1 X93.723 Y73.678 E10.31659
G1 X94.416 Y72.463 E10.36311
G1 X94.915 Y71.669 E10.3943
G0 F6000 X95.254 Y71.882
G1 F1200 X95.81 Y71.149 E10.4249
G1 X96.428 Y70.466 E10.45554
G1 X97.103 Y69.84 E10.48616
G1 X97.83 Y69.275 E10.51678
G1 X98.603 Y68.775 E10.5474
G1 X99.417 Y68.344 E10.57803
G1 X100.264 Y67.985 E10.60863
G1 X101.14 Y67.701 E10.63926
G1 X102.037 Y67.494 E10.66988
G1 X102.949 Y67.366 E10.70051
G1 X103.785 Y67.319 E10.72836
G1 X104.839 Y67.302 E10.76342
G1 X126.519 Y67.303 E11.4845
G1 X127.224 Y67.314 E11.50795
G1 X128.143 Y67.369 E11.53857
G1 X129.054 Y67.502 E11.56919
G1 X129.95 Y67.715 E11.59982
G1 X130.824 Y68.004 E11.63044
G1 X131.67 Y68.368 E11.66107
G1 X132.613 Y68.884 E11.69683
G1 X133.677 Y69.538 E11.73837
G1 X133.91 Y69.667 E11.74722
G1 X134.913 Y70.298 E11.78664
G1 X135.91 Y70.896 E11.8253
G1 X136.72 Y71.434 E11.85765
G1 X137.117 Y71.725 E11.87402
G1 X138.034 Y72.48 E11.91352
G1 X138.412 Y72.831 E11.93068
G1 X139.593 Y73.962 E11.98507
G1 X141.431 Y75.625 E12.06751
G1 X143.391 Y77.297 E12.1532
G1 X145.351 Y78.879 E12.23697
G1 X147.359 Y80.407 E12.3209
G1 X149.439 Y81.9 E12.40605
G1 X151.477 Y83.276 E12.48784
G1 X153.665 Y84.664 E12.57402
G1 X155.837 Y85.958 E12.65811
G1 X157.299 Y86.791 E12.71408
G1 X158.078 Y87.282 E12.7447
G1 X158.812 Y87.838 E12.77533
G1 X159.495 Y88.455 E12.80594
G1 X160.121 Y89.13 E12.83656
G1 X160.687 Y89.856 E12.86718
G1 X161.188 Y90.629 E12.89782
G1 X161.619 Y91.442 E12.92842
G1 X161.978 Y92.29 E12.95905
G1 X162.263 Y93.165 E12.98966
G1 X162.47 Y94.062 E13.02028
G1 X162.599 Y94.974 E13.05091
G1 X162.646 Y95.759 E13.07707
G1 X162.667 Y96.759 E13.11034
G1 X162.669 Y97.422 E13.13239
G1 X162.659 Y97.671 E13.14068
G1 X162.658 Y139.787 E14.54146
G1 X162.648 Y140.514 E14.56564
G1 X162.595 Y141.433 E14.59626
G1 X162.463 Y142.344 E14.62688
G1 X162.252 Y143.24 E14.65749
G1 X161.965 Y144.115 E14.68812
G1 X161.602 Y144.961 E14.71874
G1 X161.168 Y145.773 E14.74936
G1 X160.664 Y146.544 E14.78
G1 X160.096 Y147.268 E14.81061
G1 X159.467 Y147.94 E14.84122
G1 X158.782 Y148.555 E14.87184
G1 X158.046 Y149.108 E14.90246
G1 X157.265 Y149.596 E14.93309
G1 X156.445 Y150.014 E14.9637
G1 X155.591 Y150.359 E14.99433
G1 X154.711 Y150.628 E15.02494
G1 X153.81 Y150.821 E15.05559
G1 X152.539 Y150.957 E15.0981
G1 X150.232 Y151.064 E15.17492
G1 X147.744 Y151.244 E15.25788
G1 X145.186 Y151.501 E15.34339
G1 X142.724 Y151.82 E15.42596
G1 X140.203 Y152.219 E15.51086
G1 X137.71 Y152.686 E15.59521
G1 X135.267 Y153.214 E15.67835
G1 X132.79 Y153.826 E15.76321
G1 X130.358 Y154.499 E15.84714
G1 X127.89 Y155.258 E15.93302
G1 X127.411 Y155.412 E15.94975
G1 X126.524 Y155.656 E15.98035
G1 X125.618 Y155.822 E16.01098
G1 X124.485 Y155.917 E16.0488
G1 X123.834 Y155.932 E16.07046
G1 X104.399 Y155.931 E16.71687
G1 X103.7 Y155.921 E16.74012
G1 X102.781 Y155.868 E16.77074
G1 X101.635 Y155.687 E16.80933
G1 X100.542 Y155.453 E16.8465
G1 X97.964 Y154.936 E16.93395
G1 X95.472 Y154.511 E17.01804
G1 X92.922 Y154.148 E17.1037
G1 X90.454 Y153.868 E17.18632
G1 X87.918 Y153.653 E17.27097
G1 X85.414 Y153.512 E17.35438
G1 X83.389 Y153.455 E17.42176
G1 X82.284 Y153.404 E17.45855
G1 X81.367 Y153.32 E17.48918
G1 X80.757 Y153.219 E17.50974
G1 X80.353 Y153.14 E17.52344
G1 X79.458 Y152.924 E17.55406
G1 X79.005 Y152.783 E17.56984
G1 X78.607 Y152.649 E17.58381
G1 X77.748 Y152.318 E17.61442
G1 X77.3 Y152.11 E17.63085
G1 X76.931 Y151.928 E17.64454
G1 X76.124 Y151.485 E17.67516
G1 X75.369 Y150.992 E17.70515
G1 X74.627 Y150.447 E17.73577
G1 X74.238 Y150.119 E17.75269
G1 X73.923 Y149.84 E17.76669
G1 X72.972 Y148.883 E17.81156
G1 X72.707 Y148.58 E17.82495
G1 X72.132 Y147.862 E17.85554
G1 X71.642 Y147.146 E17.8844
G1 X70.962 Y145.968 E17.92964
G1 X70.768 Y145.576 E17.94419
G1 X70.396 Y144.734 E17.9748
G1 X70.212 Y144.226 E17.99277
G1 X70.085 Y143.845 E18.00613
G1 X69.742 Y142.547 E18.05079
G1 X69.661 Y142.137 E18.06469
G1 X69.493 Y140.924 E18.10542
G1 X69.446 Y140.075 E18.1337
G1 X69.424 Y138.783 E18.17668
G1 X69.425 Y108.484 E19.18442
G1 X69.432 Y107.993 E19.20076
G1 X69.472 Y107.029 E19.23285
G1 X69.555 Y106.112 E19.26347
G1 X69.658 Y105.487 E19.28454
G1 X69.739 Y105.074 E19.29854
G1 X69.955 Y104.179 E19.32916
G1 X70.238 Y103.31 E19.35956
G1 X70.57 Y102.451 E19.39019
G1 X70.787 Y101.987 E19.40722
G1 X70.965 Y101.629 E19.42052
G1 X71.633 Y100.474 E19.4649
G1 X71.866 Y100.124 E19.47888
G1 X72.409 Y99.381 E19.50949
G1 X72.732 Y98.996 E19.52621
G1 X73.032 Y98.655 E19.54131
G1 X73.669 Y97.991 E19.57192
G1 X74.126 Y97.58 E19.59236
G1 X74.611 Y97.168 E19.61353
G1 X76.586 Y95.438 E19.70085
G1 X78.427 Y93.731 E19.78435
G1 X80.259 Y91.933 E19.86973
G1 X81.997 Y90.127 E19.9531
G1 X83.701 Y88.254 E20.03731
G1 X85.358 Y86.326 E20.12187
G1 X86.933 Y84.385 E20.20501
G1 X88.48 Y82.363 E20.28968
G1 X89.958 Y80.315 E20.37369
G1 X91.385 Y78.216 E20.45811
G1 X92.744 Y76.087 E20.54211
G1 X94.054 Y73.903 E20.62682
G1 X94.763 Y72.661 E20.67438
G1 X95.254 Y71.882 E20.70501
G0 F6000 X95.592 Y72.096
G1 F1200 X96.14 Y71.378 E20.73505
G1 X96.749 Y70.711 E20.76509
G1 X97.415 Y70.101 E20.79513
G1 X98.132 Y69.552 E20.82517
G1 X98.895 Y69.068 E20.85522
G1 X99.697 Y68.654 E20.88524
G1 X100.534 Y68.313 E20.9153
G1 X101.397 Y68.046 E20.94535
G1 X102.28 Y67.858 E20.97537
G1 X103.176 Y67.748 E21.0054
G1 X103.792 Y67.719 E21.02591
G1 X104.839 Y67.702 E21.06074
G1 X126.513 Y67.703 E21.78162
G1 X127.218 Y67.714 E21.80507
G1 X128.12 Y67.768 E21.83512
G1 X129.013 Y67.902 E21.86516
G1 X129.891 Y68.114 E21.8952
G1 X130.746 Y68.403 E21.92522
G1 X131.573 Y68.766 E21.95525
G1 X132.403 Y69.225 E21.9868
G1 X133.351 Y69.808 E22.02382
G1 X133.697 Y70.005 E22.03706
G1 X134.729 Y70.654 E22.07761
G1 X135.704 Y71.239 E22.11542
G1 X136.483 Y71.756 E22.14652
G1 X136.88 Y72.047 E22.16289
G1 X137.763 Y72.774 E22.20093
G1 X138.136 Y73.12 E22.21786
G1 X139.313 Y74.247 E22.27206
G1 X141.187 Y75.942 E22.3561
G1 X143.125 Y77.597 E22.44086
G1 X145.124 Y79.21 E22.52629
G1 X147.106 Y80.718 E22.60913
G1 X149.189 Y82.212 E22.69439
G1 X151.301 Y83.639 E22.77916
G1 X153.436 Y84.993 E22.86325
G1 X155.656 Y86.315 E22.94919
G1 X157.101 Y87.139 E23.00451
G1 X157.865 Y87.621 E23.03456
G1 X158.583 Y88.168 E23.06458
G1 X159.25 Y88.776 E23.0946
G1 X159.861 Y89.442 E23.12466
G1 X160.411 Y90.158 E23.15469
G1 X160.895 Y90.921 E23.18474
G1 X161.309 Y91.723 E23.21476
G1 X161.651 Y92.559 E23.2448
G1 X161.918 Y93.422 E23.27485
G1 X162.107 Y94.305 E23.30488
G1 X162.218 Y95.201 E23.33491
G1 X162.246 Y95.768 E23.35379
G1 X162.267 Y96.76 E23.38679
G1 X162.269 Y97.423 E23.40885
G1 X162.259 Y97.667 E23.41697
G1 X162.258 Y139.781 E24.81768
G1 X162.248 Y140.508 E24.84187
G1 X162.196 Y141.41 E24.87192
G1 X162.064 Y142.303 E24.90194
G1 X161.853 Y143.182 E24.93201
G1 X161.566 Y144.038 E24.96204
G1 X161.204 Y144.865 E24.99206
G1 X160.77 Y145.657 E25.0221
G1 X160.268 Y146.408 E25.05214
G1 X159.702 Y147.111 E25.08216
G1 X159.075 Y147.762 E25.11222
G1 X158.394 Y148.354 E25.14224
G1 X157.663 Y148.884 E25.17227
G1 X156.887 Y149.347 E25.20232
G1 X156.074 Y149.74 E25.23236
G1 X155.229 Y150.06 E25.26241
G1 X154.36 Y150.303 E25.29242
G1 X153.472 Y150.468 E25.32246
G1 X152.521 Y150.557 E25.35423
G1 X150.222 Y150.663 E25.43078
G1 X147.711 Y150.845 E25.51451
G1 X145.166 Y151.101 E25.59959
G1 X142.648 Y151.427 E25.68403
G1 X140.132 Y151.825 E25.76876
G1 X137.622 Y152.295 E25.85369
G1 X135.191 Y152.821 E25.93642
G1 X132.693 Y153.438 E26.022
G1 X130.238 Y154.118 E26.10673
G1 X127.753 Y154.882 E26.1932
G1 X127.289 Y155.031 E26.2094
G1 X126.418 Y155.27 E26.23945
G1 X125.529 Y155.43 E26.26949
G1 X124.473 Y155.517 E26.30473
G1 X123.834 Y155.532 E26.32599
G1 X104.405 Y155.531 E26.9722
G1 X103.706 Y155.521 E26.99545
G1 X102.805 Y155.468 E27.02547
G1 X101.718 Y155.296 E27.06207
G1 X100.611 Y155.059 E27.09973
G1 X98.044 Y154.545 E27.1868
G1 X95.484 Y154.107 E27.27318
G1 X93.027 Y153.758 E27.35572
G1 X90.462 Y153.467 E27.44158
G1 X87.974 Y153.256 E27.52463
G1 X85.413 Y153.112 E27.60995
G1 X83.401 Y153.055 E27.67689
G1 X82.303 Y153.004 E27.71345
G1 X81.404 Y152.921 E27.74348
G1 X80.834 Y152.826 E27.7627
G1 X80.43 Y152.747 E27.77639
G1 X79.132 Y152.404 E27.82104
G1 X78.734 Y152.27 E27.83501
G1 X77.892 Y151.944 E27.86504
G1 X77.108 Y151.569 E27.89395
G1 X75.945 Y150.897 E27.93862
G1 X75.591 Y150.66 E27.95279
G1 X74.864 Y150.125 E27.98281
G1 X74.503 Y149.82 E27.99853
G1 X74.188 Y149.541 E28.01253
G1 X73.273 Y148.62 E28.05571
G1 X73.008 Y148.317 E28.0691
G1 X72.199 Y147.26 E28.11337
G1 X71.975 Y146.924 E28.1268
G1 X71.32 Y145.79 E28.17036
G1 X71.126 Y145.398 E28.1849
G1 X70.762 Y144.572 E28.21493
G1 X70.591 Y144.1 E28.23162
G1 X70.464 Y143.719 E28.24498
G1 X70.134 Y142.47 E28.28795
G1 X70.053 Y142.06 E28.30185
G1 X69.892 Y140.892 E28.34106
G1 X69.846 Y140.068 E28.36851
G1 X69.824 Y138.783 E28.41126
G1 X69.825 Y108.49 E29.41881
G1 X69.842 Y107.665 E29.44625
G1 X69.871 Y107.048 E29.4668
G1 X69.954 Y106.149 E29.49682
G1 X70.051 Y105.564 E29.51655
G1 X70.132 Y105.151 E29.53055
G1 X70.479 Y103.846 E29.57546
G1 X70.617 Y103.438 E29.58978
G1 X70.944 Y102.596 E29.61983
G1 X71.146 Y102.165 E29.63566
G1 X71.324 Y101.807 E29.64896
G1 X71.966 Y100.696 E29.69163
G1 X72.199 Y100.346 E29.70562
G1 X72.733 Y99.617 E29.73567
G1 X73.032 Y99.261 E29.75114
G1 X73.332 Y98.92 E29.76624
G1 X73.958 Y98.269 E29.79628
G1 X74.385 Y97.885 E29.81538
G1 X74.851 Y97.489 E29.83572
G1 X76.875 Y95.716 E29.92522
G1 X78.714 Y94.011 E30.00863
G1 X80.527 Y92.231 E30.09313
G1 X82.282 Y90.409 E30.17727
G1 X83.999 Y88.521 E30.26215
G1 X85.673 Y86.572 E30.3476
G1 X87.246 Y84.635 E30.4306
G1 X88.789 Y82.618 E30.51506
G1 X90.297 Y80.528 E30.60078
G1 X91.71 Y78.45 E30.68436
G1 X93.091 Y76.286 E30.76974
G1 X94.385 Y74.129 E30.8534
G1 X95.11 Y72.859 E30.90204
G1 X95.592 Y72.096 E30.93206
G1 F2700 E25.93206
G0 F6000 X127.714 Y77.249
G0 X129.661 Y81.619
G1 F2700 E30.93206
G1 F1200 X129.691 Y81.653 E30.93357
G1 X129.691 Y90.147 E31.21608
G1 X129.661 Y90.179 E31.21754
G1 X129.661 Y81.619 E31.50224
G0 F6000 X129.984 Y81.375
G1 F1200 X130.091 Y81.552 E31.50912
G1 X130.086 Y90.229 E31.79772
G1 X130.038 Y90.351 E31.80208
G1 X129.886 Y90.521 E31.80967
G1 X129.603 Y90.71 E31.82098
G1 X129.261 Y90.849 E31.83326
G1 X129.261 Y80.932 E32.1631
G1 X129.687 Y81.133 E32.17877
G1 X129.984 Y81.375 E32.19151
G0 F6000 X130.193 Y81.018
G1 F1200 X130.386 Y81.25 E32.20155
G1 X130.491 Y81.506 E32.21075
G1 X130.491 Y90.274 E32.50238
G1 X130.441 Y90.436 E32.50802
G1 X130.299 Y90.672 E32.51718
G1 X129.933 Y90.999 E32.5335
G1 X129.555 Y91.17 E32.5473
