;FLAVOR:Marlin
;TIME:4750
;Filament used: 2.86886m
;Layer height: 0.2
;MINX:72.317
;MINY:87.576
;MINZ:0.2
;MAXX:157.638
;MAXY:147.419
;MAXZ:16.8
;Generated with Cura_SteamEngine 5.2.1
M140 S60
M105
M190 S60
M104 S210
M105
M109 S210
M82 ;absolute extrusion mode
; Ender 3 Custom Start G-code
G92 E0 ; Reset Extruder
G28 ; Home all axes
G1 Z2.0 F3000 ; Move Z Axis up little to prevent scratching of Heat Bed
G1 X0.1 Y20 Z0.3 F5000.0 ; Move to start position
G1 X0.1 Y200.0 Z0.3 F1500.0 E15 ; Draw the first line
G1 X0.4 Y200.0 Z0.3 F5000.0 ; Move to side a little
G1 X0.4 Y20 Z0.3 F1500.0 E30 ; Draw the second line
G92 E0 ; Reset Extruder
G1 Z2.0 F3000 ; Move Z Axis up little to prevent scratching of Heat Bed
G1 X5 Y20 Z0.3 F5000.0 ; Move over to prevent blob squish
G92 E0
G92 E0
G1 F2700 E-5
;LAYER_COUNT:84
;LAYER:0
M107
G0 F6000 X76.953 Y99.452 Z0.2
;TYPE:SKIRT
G1 F2700 E0
G1 F1200 X77.739 Y98.942 E0.03116
G1 X78.567 Y98.5 E0.06238
G1 X79.429 Y98.131 E0.09357
G1 X80.319 Y97.836 E0.12475
G1 X81.004 Y97.665 E0.14824
G1 X83.731 Y97.076 E0.24103
G1 X86.12 Y96.489 E0.32285
G1 X88.592 Y95.805 E0.40816
G1 X90.992 Y95.069 E0.49165
G1 X93.391 Y94.258 E0.57588
G1 X95.731 Y93.392 E0.65887
G1 X98.102 Y92.438 E0.74387
G1 X100.394 Y91.439 E0.82703
G1 X102.88 Y90.281 E0.91824
G1 X103.473 Y90.016 E0.93985
G1 X104.17 Y89.725 E0.96497
G1 X104.549 Y89.578 E0.97849
G1 X105.512 Y89.225 E1.0126
G1 X106.048 Y89.044 E1.03142
G1 X107.012 Y88.75 E1.06494
G1 X107.669 Y88.567 E1.08762
G1 X108.291 Y88.409 E1.10897
G1 X108.712 Y88.313 E1.12333
G1 X109.779 Y88.092 E1.15957
G1 X110.38 Y87.982 E1.17989
G1 X110.801 Y87.917 E1.19406
G1 X111.935 Y87.766 E1.23211
G1 X112.535 Y87.703 E1.25218
G1 X113.524 Y87.63 E1.28516
G1 X114.233 Y87.594 E1.30877
G1 X114.815 Y87.577 E1.32814
G1 X115.253 Y87.576 E1.34271
G1 X116.394 Y87.596 E1.38066
G1 X117.045 Y87.623 E1.40233
G1 X117.472 Y87.654 E1.41657
G1 X118.617 Y87.759 E1.45482
G1 X119.217 Y87.831 E1.47491
G1 X120.202 Y87.98 E1.50805
G1 X120.84 Y88.091 E1.52959
G1 X121.444 Y88.209 E1.55006
G1 X121.845 Y88.299 E1.56373
G1 X122.93 Y88.563 E1.60087
G1 X123.579 Y88.738 E1.62322
G1 X123.999 Y88.865 E1.63782
G1 X125.099 Y89.222 E1.67628
G1 X125.651 Y89.418 E1.69576
G1 X126.538 Y89.763 E1.72742
G1 X127.22 Y90.047 E1.75199
G1 X127.755 Y90.282 E1.77142
G1 X128.202 Y90.494 E1.78788
G1 X129.175 Y90.982 E1.82408
G1 X129.641 Y91.23 E1.84164
G1 X130.59 Y91.773 E1.87801
G1 X131.392 Y92.264 E1.90928
G1 X131.849 Y92.56 E1.92739
G1 X132.457 Y92.979 E1.95195
G1 X133.23 Y93.536 E1.98364
G1 X133.634 Y93.841 E2.00048
G1 X134.121 Y94.23 E2.02121
G1 X134.732 Y94.735 E2.04757
G1 X135.094 Y95.048 E2.06349
G1 X137.277 Y97.018 E2.16129
G1 X139.198 Y98.66 E2.24534
G1 X141.163 Y100.246 E2.32933
G1 X143.163 Y101.767 E2.4129
G1 X145.209 Y103.235 E2.49666
G1 X147.284 Y104.638 E2.57997
G1 X149.416 Y105.992 E2.66397
G1 X152.023 Y107.54 E2.76481
G1 X152.814 Y108.043 E2.79599
G1 X153.56 Y108.612 E2.8272
G1 X154.254 Y109.243 E2.85839
G1 X154.892 Y109.93 E2.88958
G1 X155.469 Y110.669 E2.92076
G1 X155.981 Y111.455 E2.95196
G1 X156.425 Y112.282 E2.98318
G1 X156.796 Y113.143 E3.01436
G1 X157.119 Y114.128 E3.04884
G1 X157.24 Y114.565 E3.06392
G1 X157.452 Y115.478 E3.0951
G1 X157.585 Y116.407 E3.12631
G1 X157.638 Y117.343 E3.15749
G1 X157.611 Y118.281 E3.1887
G1 X157.505 Y119.212 E3.21987
G1 X157.251 Y120.396 E3.26014
G1 X157.132 Y120.832 E3.27518
G1 X156.847 Y121.726 E3.30638
G1 X156.486 Y122.592 E3.33759
G1 X156.053 Y123.424 E3.36879
G1 X155.551 Y124.216 E3.39997
G1 X154.984 Y124.962 E3.43114
G1 X154.354 Y125.658 E3.46236
G1 X153.668 Y126.297 E3.49354
G1 X152.93 Y126.876 E3.52474
G1 X152.066 Y127.436 E3.55899
G1 X151.23 Y127.924 E3.59118
G1 X149.009 Y129.264 E3.67746
G1 X146.908 Y130.613 E3.7605
G1 X144.842 Y132.023 E3.8437
G1 X142.77 Y133.526 E3.92883
G1 X140.801 Y135.041 E4.01146
G1 X138.832 Y136.644 E4.09591
G1 X136.92 Y138.297 E4.17998
G1 X135.169 Y139.886 E4.25862
G1 X134.779 Y140.228 E4.27587
G1 X134.438 Y140.512 E4.29063
G1 X133.544 Y141.226 E4.32869
G1 X133.09 Y141.569 E4.34761
G1 X132.316 Y142.12 E4.37921
G1 X131.666 Y142.559 E4.4053
G1 X131.225 Y142.841 E4.42271
G1 X130.373 Y143.355 E4.4558
G1 X129.77 Y143.699 E4.47889
G1 X129.328 Y143.937 E4.49559
G1 X128.392 Y144.409 E4.53046
G1 X127.569 Y144.796 E4.56071
G1 X127.047 Y145.026 E4.57968
G1 X126.474 Y145.26 E4.60026
G1 X125.406 Y145.669 E4.6383
G1 X124.866 Y145.858 E4.65733
G1 X124.129 Y146.092 E4.68305
G1 X123.216 Y146.361 E4.71471
G1 X122.572 Y146.529 E4.73684
G1 X121.463 Y146.784 E4.77469
G1 X121.049 Y146.871 E4.78876
G1 X120.356 Y146.995 E4.81218
G1 X119.244 Y147.164 E4.84959
G1 X118.661 Y147.237 E4.86913
G1 X118.006 Y147.301 E4.89102
G1 X116.924 Y147.38 E4.9271
G1 X116.361 Y147.408 E4.94585
G1 X115.933 Y147.417 E4.96009
G1 X114.8 Y147.419 E4.99777
G1 X114.222 Y147.405 E5.017
G1 X113.514 Y147.369 E5.04058
G1 X112.536 Y147.296 E5.0732
G1 X112.041 Y147.246 E5.08975
G1 X110.936 Y147.101 E5.12681
G1 X109.984 Y146.947 E5.15889
G1 X109.363 Y146.828 E5.17992
G1 X108.288 Y146.59 E5.21654
G1 X107.877 Y146.49 E5.23061
G1 X107.27 Y146.327 E5.25151
G1 X106.64 Y146.14 E5.27337
G1 X105.797 Y145.874 E5.30277
G1 X105.288 Y145.7 E5.32066
G1 X104.598 Y145.442 E5.34516
G1 X103.628 Y145.053 E5.37992
G1 X102.997 Y144.776 E5.40284
G1 X100.111 Y143.431 E5.50875
G1 X97.761 Y142.42 E5.59383
G1 X95.452 Y141.5 E5.6765
G1 X93.109 Y140.644 E5.75947
G1 X90.686 Y139.835 E5.84443
G1 X88.306 Y139.115 E5.92713
G1 X85.848 Y138.447 E6.01185
G1 X83.396 Y137.855 E6.09575
G1 X82.403 Y137.645 E6.12951
G1 X82.232 Y137.601 E6.13538
G1 X80.998 Y137.334 E6.17737
G1 X80.091 Y137.097 E6.20855
G1 X79.207 Y136.783 E6.23975
G1 X78.353 Y136.395 E6.27095
G1 X77.536 Y135.936 E6.30212
G1 X76.76 Y135.408 E6.33334
G1 X76.032 Y134.817 E6.36453
G1 X75.357 Y134.166 E6.39572
G1 X74.74 Y133.459 E6.42693
G1 X74.186 Y132.703 E6.4581
G1 X73.698 Y131.902 E6.4893
G1 X73.28 Y131.063 E6.52047
G1 X72.934 Y130.191 E6.55168
G1 X72.665 Y129.292 E6.58289
G1 X72.473 Y128.374 E6.61408
G1 X72.36 Y127.443 E6.64527
G1 X72.33 Y126.878 E6.66409
G1 X72.317 Y126.248 E6.68505
G1 X72.318 Y119.976 E6.89366
G1 X72.333 Y118.903 E6.92935
G1 X72.333 Y116.252 E7.01752
G1 X72.319 Y115.505 E7.04237
G1 X72.318 Y108.945 E7.26056
G1 X72.328 Y108.257 E7.28344
G1 X72.382 Y107.321 E7.31463
G1 X72.515 Y106.392 E7.34584
G1 X72.727 Y105.479 E7.37701
G1 X73.015 Y104.586 E7.40822
G1 X73.379 Y103.722 E7.4394
G1 X73.815 Y102.892 E7.47059
G1 X74.321 Y102.102 E7.50179
G1 X74.891 Y101.357 E7.53299
G1 X75.523 Y100.664 E7.56418
G1 X76.212 Y100.028 E7.59537
G1 X76.953 Y99.452 E7.62659
G0 F6000 X77.337 Y99.672
G1 F1200 X78.118 Y99.185 E7.6572
G1 X78.939 Y98.768 E7.68783
G1 X79.793 Y98.424 E7.71845
G1 X81.088 Y98.056 E7.76323
G1 X83.805 Y97.469 E7.85568
G1 X86.249 Y96.868 E7.93939
G1 X88.72 Y96.185 E8.02466
G1 X91.09 Y95.458 E8.10711
G1 X93.51 Y94.64 E8.19207
G1 X95.894 Y93.758 E8.27662
G1 X98.233 Y92.817 E8.36047
G1 X100.56 Y91.802 E8.44491
G1 X103.043 Y90.646 E8.53601
G1 X103.636 Y90.381 E8.55761
G1 X104.321 Y90.095 E8.5823
G1 X105.65 Y89.601 E8.62946
G1 X106.166 Y89.426 E8.64758
G1 X106.832 Y89.22 E8.67077
G1 X107.777 Y88.953 E8.70343
G1 X108.387 Y88.797 E8.72437
G1 X108.793 Y88.704 E8.73822
G1 X109.86 Y88.483 E8.77446
G1 X110.448 Y88.376 E8.79434
G1 X110.854 Y88.314 E8.808
G1 X111.988 Y88.163 E8.84605
G1 X112.566 Y88.102 E8.86538
G1 X113.261 Y88.048 E8.88857
G1 X114.253 Y87.994 E8.92161
G1 X114.824 Y87.977 E8.94061
G1 X115.246 Y87.976 E8.95465
G1 X116.387 Y87.996 E8.9926
G1 X117.024 Y88.023 E9.01381
G1 X117.435 Y88.052 E9.02751
G1 X118.58 Y88.157 E9.06575
G1 X119.159 Y88.226 E9.08515
G1 X119.864 Y88.33 E9.10885
G1 X120.772 Y88.485 E9.13949
G1 X121.364 Y88.601 E9.15955
G1 X122.835 Y88.952 E9.20985
G1 X123.471 Y89.123 E9.23176
G1 X123.875 Y89.246 E9.2458
G1 X124.975 Y89.603 E9.28427
G1 X125.507 Y89.791 E9.30303
G1 X126.113 Y90.024 E9.32463
G1 X127.066 Y90.417 E9.35891
G1 X127.592 Y90.648 E9.37802
G1 X128.023 Y90.852 E9.39388
G1 X128.996 Y91.34 E9.43009
G1 X129.445 Y91.579 E9.447
G1 X130.381 Y92.114 E9.48286
G1 X131.183 Y92.605 E9.51414
G1 X131.624 Y92.89 E9.5316
G1 X132.223 Y93.303 E9.5558
G1 X132.996 Y93.86 E9.58749
G1 X133.385 Y94.154 E9.60371
G1 X133.699 Y94.403 E9.61704
G1 X134.477 Y95.044 E9.65057
G1 X134.826 Y95.345 E9.66589
G1 X137.012 Y97.318 E9.76384
G1 X138.954 Y98.977 E9.84879
G1 X140.91 Y100.556 E9.9324
G1 X142.916 Y102.082 E10.01623
G1 X144.998 Y103.576 E10.10146
G1 X147.067 Y104.975 E10.18453
G1 X149.202 Y106.331 E10.26865
G1 X151.823 Y107.886 E10.37001
G1 X152.599 Y108.381 E10.40063
G1 X153.33 Y108.941 E10.43125
G1 X154.009 Y109.563 E10.46188
G1 X154.631 Y110.241 E10.49248
G1 X155.192 Y110.971 E10.52311
G1 X155.688 Y111.747 E10.55374
G1 X156.115 Y112.562 E10.58434
G1 X156.469 Y113.412 E10.61496
G1 X156.734 Y114.234 E10.64369
G1 X156.855 Y114.671 E10.65877
G1 X157.062 Y115.569 E10.68942
G1 X157.19 Y116.48 E10.72002
G1 X157.239 Y117.4 E10.75066
G1 X157.207 Y118.32 E10.78128
G1 X157.096 Y119.234 E10.8119
G1 X156.865 Y120.291 E10.84789
G1 X156.746 Y120.727 E10.86292
G1 X156.465 Y121.604 E10.89355
G1 X156.109 Y122.453 E10.92417
G1 X155.681 Y123.268 E10.95479
G1 X155.184 Y124.043 E10.98541
G1 X154.622 Y124.772 E11.01602
G1 X153.998 Y125.449 E11.04665
G1 X153.318 Y126.069 E11.07725
G1 X152.586 Y126.629 E11.10791
G1 X151.864 Y127.09 E11.1364
G1 X151.079 Y127.548 E11.16663
G1 X148.807 Y128.919 E11.25489
G1 X146.671 Y130.29 E11.33931
G1 X144.603 Y131.702 E11.42259
G1 X142.537 Y133.2 E11.50747
G1 X140.55 Y134.729 E11.59086
G1 X138.581 Y136.333 E11.67533
G1 X136.653 Y137.999 E11.76008
G1 X134.9 Y139.59 E11.83882
G1 X134.517 Y139.926 E11.85576
G1 X134.188 Y140.2 E11.87
G1 X133.294 Y140.914 E11.90806
G1 X132.857 Y141.244 E11.92627
G1 X132.092 Y141.788 E11.95749
G1 X131.442 Y142.227 E11.98358
G1 X131.017 Y142.5 E12.00038
G1 X130.43 Y142.857 E12.02323
G1 X129.571 Y143.351 E12.05619
G1 X129.146 Y143.581 E12.07226
G1 X128.222 Y144.047 E12.10668
G1 X127.399 Y144.434 E12.13693
G1 X126.896 Y144.655 E12.1552
G1 X126.079 Y144.985 E12.18451
G1 X125.263 Y145.295 E12.21354
G1 X124.743 Y145.477 E12.23186
G1 X124.016 Y145.708 E12.25724
G1 X123.103 Y145.977 E12.28889
G1 X122.482 Y146.139 E12.31024
G1 X121.373 Y146.394 E12.34809
G1 X120.975 Y146.478 E12.36162
G1 X120.296 Y146.6 E12.38456
G1 X119.184 Y146.769 E12.42197
G1 X118.622 Y146.839 E12.44081
G1 X117.967 Y146.903 E12.4627
G1 X116.896 Y146.981 E12.49841
G1 X116.345 Y147.008 E12.51676
G1 X115.933 Y147.017 E12.53047
G1 X114.8 Y147.019 E12.56815
G1 X114.243 Y147.005 E12.58668
G1 X113.241 Y146.95 E12.62006
G1 X112.568 Y146.897 E12.64251
G1 X112.091 Y146.849 E12.65846
G1 X111 Y146.706 E12.69506
G1 X110.048 Y146.552 E12.72713
G1 X109.45 Y146.437 E12.74739
G1 X108.375 Y146.199 E12.78401
G1 X107.978 Y146.104 E12.79758
G1 X107.382 Y145.943 E12.81812
G1 X106.76 Y145.759 E12.83969
G1 X105.917 Y145.493 E12.86909
G1 X105.427 Y145.325 E12.88632
G1 X104.745 Y145.07 E12.91054
G1 X103.786 Y144.686 E12.9449
G1 X103.166 Y144.413 E12.96743
G1 X100.26 Y143.059 E13.07406
G1 X97.963 Y142.07 E13.15724
G1 X95.59 Y141.125 E13.24219
G1 X93.215 Y140.258 E13.32628
G1 X90.823 Y139.459 E13.41016
G1 X88.412 Y138.729 E13.49395
G1 X85.942 Y138.058 E13.57908
G1 X83.501 Y137.469 E13.6626
G1 X82.486 Y137.254 E13.6971
G1 X82.31 Y137.209 E13.70315
G1 X81.083 Y136.943 E13.7449
G1 X80.193 Y136.709 E13.77551
G1 X79.326 Y136.399 E13.80614
G1 X78.489 Y136.015 E13.83677
G1 X77.689 Y135.56 E13.86738
G1 X76.931 Y135.037 E13.89801
G1 X76.222 Y134.45 E13.92862
G1 X75.566 Y133.804 E13.95924
G1 X74.969 Y133.103 E13.98987
G1 X74.434 Y132.354 E14.02048
G1 X73.967 Y131.56 E14.05112
G1 X73.571 Y130.729 E14.08174
G1 X73.248 Y129.867 E14.11235
G1 X73.001 Y128.98 E14.14298
G1 X72.832 Y128.075 E14.1736
G1 X72.73 Y126.868 E14.21389
G1 X72.717 Y126.248 E14.23451
G1 X72.718 Y119.982 E14.44292
G1 X72.733 Y118.909 E14.47861
G1 X72.733 Y116.29 E14.56572
G1 X72.719 Y115.505 E14.59183
G1 X72.718 Y108.951 E14.80982
G1 X72.728 Y108.263 E14.83271
G1 X72.781 Y107.344 E14.86332
G1 X72.914 Y106.433 E14.89394
G1 X73.126 Y105.537 E14.92457
G1 X73.414 Y104.662 E14.95521
G1 X73.777 Y103.816 E14.98582
G1 X74.213 Y103.005 E15.01645
G1 X74.717 Y102.235 E15.04706
G1 X75.285 Y101.511 E15.07767
G1 X75.915 Y100.839 E15.1083
G1 X76.601 Y100.225 E15.13892
G1 X77.337 Y99.672 E15.16954
G0 F6000 X77.72 Y99.896
G1 F1200 X78.496 Y99.434 E15.19958
G1 X79.309 Y99.042 E15.2296
G1 X80.154 Y98.723 E15.25964
G1 X81.172 Y98.447 E15.29472
G1 X83.921 Y97.853 E15.38826
G1 X86.346 Y97.257 E15.47132
G1 X88.797 Y96.58 E15.55589
G1 X91.23 Y95.833 E15.64054
G1 X93.671 Y95.007 E15.72625
G1 X96.034 Y94.133 E15.81005
G1 X98.363 Y93.196 E15.89355
G1 X100.741 Y92.159 E15.97983
G1 X103.059 Y91.079 E16.06489
G1 X103.799 Y90.747 E16.09186
G1 X104.473 Y90.465 E16.11616
G1 X104.824 Y90.329 E16.12868
G1 X105.787 Y89.976 E16.1628
G1 X106.284 Y89.808 E16.18025
G1 X106.95 Y89.602 E16.20343
G1 X107.884 Y89.338 E16.23572
G1 X108.484 Y89.185 E16.25631
G1 X108.874 Y89.096 E16.26962
G1 X109.941 Y88.875 E16.30586
G1 X110.516 Y88.77 E16.3253
G1 X110.907 Y88.71 E16.33846
G1 X112.041 Y88.559 E16.37651
G1 X112.597 Y88.501 E16.3951
G1 X113.565 Y88.429 E16.42738
G1 X114.274 Y88.393 E16.45099
G1 X114.833 Y88.377 E16.46959
G1 X115.239 Y88.376 E16.4831
G1 X116.38 Y88.396 E16.52105
G1 X117.003 Y88.422 E16.54179
G1 X117.398 Y88.451 E16.55497
G1 X118.543 Y88.556 E16.59321
G1 X119.101 Y88.622 E16.6119
G1 X119.806 Y88.726 E16.6356
G1 X120.703 Y88.879 E16.66586
G1 X121.284 Y88.993 E16.68556
G1 X121.655 Y89.076 E16.6982
G1 X122.74 Y89.34 E16.73534
G1 X123.363 Y89.508 E16.7568
G1 X123.752 Y89.626 E16.77032
G1 X124.852 Y89.983 E16.80879
G1 X125.364 Y90.164 E16.82685
G1 X125.97 Y90.397 E16.84844
G1 X126.912 Y90.786 E16.88234
G1 X127.429 Y91.013 E16.90112
G1 X127.844 Y91.209 E16.91639
G1 X128.817 Y91.697 E16.95259
G1 X129.249 Y91.927 E16.96887
G1 X130.172 Y92.455 E17.00424
G1 X130.974 Y92.946 E17.03551
G1 X131.398 Y93.22 E17.0523
G1 X131.776 Y93.478 E17.06753
G1 X132.762 Y94.185 E17.10788
G1 X133.137 Y94.468 E17.1235
G1 X133.451 Y94.717 E17.13683
G1 X134.222 Y95.352 E17.17005
G1 X134.558 Y95.642 E17.18482
G1 X136.748 Y97.618 E17.28292
G1 X138.705 Y99.291 E17.36856
G1 X140.667 Y100.874 E17.45241
G1 X142.68 Y102.405 E17.53652
G1 X144.745 Y103.888 E17.62108
G1 X146.859 Y105.317 E17.70595
G1 X149.005 Y106.679 E17.79049
G1 X151.213 Y107.995 E17.87598
G1 X151.623 Y108.232 E17.89173
G1 X152.384 Y108.718 E17.92176
G1 X153.099 Y109.27 E17.95181
G1 X153.762 Y109.883 E17.98184
G1 X154.369 Y110.551 E18.01186
G1 X154.914 Y111.271 E18.04189
G1 X155.394 Y112.037 E18.07196
G1 X155.803 Y112.842 E18.10199
G1 X156.14 Y113.679 E18.132
G1 X156.348 Y114.341 E18.15508
G1 X156.469 Y114.778 E18.17016
G1 X156.671 Y115.658 E18.20019
G1 X156.795 Y116.553 E18.23025
G1 X156.839 Y117.455 E18.26028
G1 X156.803 Y118.357 E18.29031
G1 X156.687 Y119.253 E18.32036
G1 X156.479 Y120.186 E18.35215
G1 X156.36 Y120.622 E18.36718
G1 X156.084 Y121.482 E18.39722
G1 X155.733 Y122.314 E18.42726
G1 X155.31 Y123.111 E18.45727
G1 X154.817 Y123.869 E18.48734
G1 X154.26 Y124.579 E18.51736
G1 X153.642 Y125.238 E18.54741
G1 X152.968 Y125.839 E18.57744
G1 X152.244 Y126.379 E18.60748
G1 X151.663 Y126.745 E18.63032
G1 X150.826 Y127.234 E18.66256
G1 X148.591 Y128.582 E18.74937
G1 X146.476 Y129.94 E18.83297
G1 X144.349 Y131.392 E18.91863
G1 X142.303 Y132.875 E19.00267
G1 X140.317 Y134.404 E19.08603
G1 X138.296 Y136.05 E19.17273
G1 X136.426 Y137.665 E19.25491
G1 X134.632 Y139.294 E19.33551
G1 X134.255 Y139.624 E19.35217
G1 X133.938 Y139.887 E19.36587
G1 X133.044 Y140.601 E19.40392
G1 X132.624 Y140.919 E19.42144
G1 X131.868 Y141.457 E19.45231
G1 X131.218 Y141.896 E19.47839
G1 X130.809 Y142.158 E19.49455
G1 X129.976 Y142.66 E19.5269
G1 X129.373 Y143.004 E19.54999
G1 X128.964 Y143.225 E19.56545
G1 X128.356 Y143.536 E19.58816
G1 X127.228 Y144.072 E19.6297
G1 X126.744 Y144.285 E19.64729
G1 X125.937 Y144.611 E19.67624
G1 X125.121 Y144.921 E19.70527
G1 X124.621 Y145.096 E19.72289
G1 X123.903 Y145.324 E19.74795
G1 X122.99 Y145.593 E19.7796
G1 X122.393 Y145.75 E19.80013
G1 X121.284 Y146.005 E19.83798
G1 X120.605 Y146.141 E19.86101
