;FLAVOR:Marlin
;TIME:684
;Filament used: 0.344825m
;Layer height: 0.2
;MINX:136.427
;MINY:137.516
;MINZ:0.2
;MAXX:163.573
;MAXY:162.484
;MAXZ:10.2
;Generated with Cura_SteamEngine 5.2.1
M140 S60
M105
M190 S60
M104 S209
M105
M109 S209
M82 ;absolute extrusion mode
G28 ; home all axes
 M117 Purge extruder
 G92 E0 ; reset extruder
 G1 Z1.0 F3000 ; move z up little to prevent scratching of surface
 G1 X2 Y20 Z0.3 F5000.0 ; move to start-line position
 G1 X2 Y200.0 Z0.3 F1500.0 E15 ; draw 1st line
 G1 X2 Y200.0 Z0.4 F5000.0 ; move to side a little
 G1 X2 Y20 Z0.4 F1500.0 E30 ; draw 2nd line
 G92 E0 ; reset extruder
 G1 Z1.0 F3000 ; move z up little to prevent scratching of surface
G92 E0
G92 E0
G1 F1500 E-2
;LAYER_COUNT:51
;LAYER:0
M107
G1 F300 Z0.4
;MESH:Servo-plug-matching-covers.stl
G0 F6000 X146.676 Y143.001 Z0.4
;TYPE:WALL-OUTER
G1 F300 Z0.2
G1 F1500 E0
G1 F1197 X146.512 Y143.164 E0.00771
G1 F1200 X136.974 Y143.166 E0.32494
G1 F1197 X136.828 Y143.001 E0.33229
G1 X136.827 Y138.716 E0.47517
G1 F1200 X136.971 Y138.518 E0.48331
G1 X146.531 Y138.516 E0.80128
G1 X146.677 Y138.716 E0.80951
G1 F1197 X146.676 Y143.001 E0.95239
G0 F6000 X147.077 Y143.966
G1 F1200 X147.077 Y138.13 E1.1465
G1 X147.077 Y137.716 E1.16026
G1 X136.427 Y137.716 E1.51449
G1 X136.427 Y143.966 E1.72236
G1 X147.077 Y143.966 E2.07658
G0 F6000 X146.663 Y143.552
;TYPE:WALL-INNER
G1 F1159.4 X146.477 Y143.566 E2.083
G1 F1200 X137.027 Y143.566 E2.39731
G1 F1159.4 X136.841 Y143.552 E2.40373
G1 F1500 E0.40373
G1 F300 Z0.4
G0 F6000 X136.841 Y138.13 Z0.4
G1 F300 Z0.2
G1 F1500 E2.40373
G1 F1159.4 X137.027 Y138.116 E2.41015
G1 F1200 X146.477 Y138.116 E2.72446
G1 F1159.4 X146.663 Y138.13 E2.73088
G1 F1500 E0.73088
G1 F300 Z0.4
G0 F6000 X151.79 Y142.999 Z0.4
;TYPE:WALL-OUTER
G1 F300 Z0.2
G1 F1500 E2.73088
G1 F1276.6 X151.79 Y138.716 E2.86479
G1 F1240.3 X151.963 Y138.516 E2.8733
G1 F1200 X161.541 Y138.516 E3.19186
G1 F1240.3 X161.714 Y138.716 E3.20037
G1 F1276.6 X161.714 Y142.999 E3.33428
G1 F1237.1 X161.541 Y143.166 E3.34204
G1 F1200 X151.963 Y143.166 E3.6606
G1 F1233.9 X151.79 Y142.999 E3.66838
G0 F6000 X151.428 Y144.165
G1 F1200 X162.077 Y144.166 E4.02257
G1 X162.077 Y143.665 E4.03923
G1 F1240.3 X162.09 Y142.966 E4.06173
G1 F1280 X162.09 Y138.716 E4.19425
G1 F1240.3 X162.077 Y138.017 E4.21674
G1 F1200 X162.077 Y137.516 E4.23341
G1 X151.428 Y137.517 E4.5876
G1 X151.428 Y138.017 E4.60423
G1 F1240.3 X151.414 Y138.716 E4.62672
G1 F1280 X151.414 Y142.966 E4.75924
G1 F1240.3 X151.428 Y143.665 E4.78174
G1 F1200 X151.428 Y144.165 E4.79837
G0 F6000 X151.928 Y143.665
;TYPE:WALL-INNER
G1 F798.7 X161.576 Y143.665 E5.28051
G1 F1500 E3.28051
G1 F300 Z0.4
G0 F6000 X161.576 Y138.017 Z0.4
G1 F300 Z0.2
G1 F1500 E5.28051
G1 F798.7 X151.928 Y138.017 E5.76266
G1 F1500 E3.76266
G1 F300 Z0.4
G0 F6000 X144.483 Y156.404 Z0.4
G1 F300 Z0.2
G1 F1500 E5.76266
G1 F1129.4 X147.339 Y156.404 E5.86359
G1 X146.927 Y156.118 E5.88131
G1 X146.902 Y155.978 E5.88634
G1 X144.852 Y155.978 E5.95878
G1 X144.827 Y156.118 E5.96381
G1 X144.483 Y156.404 E5.97961
G0 F6000 X145.026 Y156.816
G1 F1200 X146.728 Y156.816 E6.03622
G1 F1165 X147.877 Y156.804 E6.07559
G1 F1129.4 X149.877 Y156.804 E6.14627
G1 F1076.2 X150.327 Y156.965 E6.16399
G1 X149.971 Y156.578 E6.18349
G1 F1129.4 X149.772 Y156.378 E6.19346
G1 X147.877 Y156.378 E6.26043
G1 F1165 X147.314 Y155.975 E6.28415
G1 F1200 X147.277 Y155.566 E6.29781
G1 X144.477 Y155.566 E6.39093
G1 X144.44 Y155.975 E6.40459
G1 F1156.6 X143.983 Y156.373 E6.42551
G1 F1121.5 X141.932 Y156.378 E6.4985
G1 F1129.4 X141.734 Y156.577 E6.50842
G1 F1069 X141.376 Y156.966 E6.52816
G1 X141.827 Y156.804 E6.54605
G1 F1121.5 X144.02 Y156.801 E6.62409
G1 F1156.6 X145.026 Y156.816 E6.65881
G1 F1500 E4.65881
G1 F300 Z0.4
G0 F6000 X144.829 Y161.666 Z0.4
G1 F300 Z0.2
G1 F1500 E6.65881
G1 F1203 X146.926 Y161.666 E6.72838
G1 X146.95 Y161.541 E6.73261
G1 X147.291 Y161.266 E6.74714
G1 X144.396 Y161.266 E6.84319
G1 F1200 X144.804 Y161.541 E6.85955
G1 X144.829 Y161.666 E6.86379
G0 F6000 X144.477 Y162.066
G1 F1200 X147.277 Y162.066 E6.95692
G1 X147.32 Y161.69 E6.96951
G1 F1156.6 X147.771 Y161.309 E6.98988
G1 F1121.5 X149.772 Y161.304 E7.06109
G1 F1129.4 X149.97 Y161.105 E7.07101
G1 F1064.3 X150.247 Y160.791 E7.08672
G1 X149.877 Y160.878 E7.10097
G1 F1121.5 X147.734 Y160.881 E7.17723
G1 F1156.6 X146.765 Y160.867 E7.21068
G1 F1200 X144.989 Y160.866 E7.26975
G1 F1165 X143.877 Y160.878 E7.30784
G1 F1129.4 X141.827 Y160.878 E7.38029
G1 F1059.6 X141.458 Y160.791 E7.39457
G1 X141.733 Y161.104 E7.41026
G1 F1129.4 X141.932 Y161.304 E7.42023
G1 X143.877 Y161.304 E7.48897
G1 F1165 X144.433 Y161.691 E7.51217
G1 F1200 X144.477 Y162.066 E7.52473
G1 F1500 E5.52473
G1 F300 Z0.4
G0 F6000 X147.677 Y162.466 Z0.4
;TYPE:WALL-OUTER
G1 F300 Z0.2
G1 F1500 E7.52473
G1 F1200 X147.677 Y161.851 E7.54519
G1 X147.842 Y161.718 E7.55224
G1 X149.943 Y161.716 E7.62211
G1 X150.877 Y160.782 E7.66605
G1 X150.877 Y156.9 E7.79516
G1 X149.943 Y155.966 E7.8391
G1 X147.877 Y155.966 E7.90781
G1 X147.677 Y155.828 E7.91589
G1 X147.677 Y155.166 E7.93791
G1 X144.077 Y155.166 E8.05765
G1 X144.077 Y155.826 E8.0796
G1 X143.912 Y155.964 E8.08675
G1 X141.761 Y155.966 E8.1583
G1 X140.828 Y156.9 E8.20221
G1 X140.828 Y160.782 E8.33132
G1 X141.147 Y161.101 E8.34633
G1 X141.761 Y161.716 E8.37523
G1 X143.877 Y161.716 E8.44561
G1 X144.077 Y161.85 E8.45362
G1 X144.077 Y162.466 E8.4741
G1 X147.677 Y162.466 E8.59384
G1 F1500 E6.59384
G1 F300 Z0.4
G0 F6000 X149.993 Y160.431 Z0.4
G1 F300 Z0.2
G1 F1500 E8.59384
G1 F1200 X149.877 Y160.466 E8.59787
G1 X141.827 Y160.466 E8.86561
G1 X141.711 Y160.43 E8.86965
G1 X141.629 Y160.301 E8.87474
G1 X141.627 Y157.416 E8.97069
G1 X141.685 Y157.274 E8.9758
G1 X141.827 Y157.216 E8.9809
G1 X149.877 Y157.216 E9.24864
G1 X150.019 Y157.273 E9.25373
G1 X150.077 Y157.416 E9.25886
G1 X150.075 Y160.301 E9.35482
G1 X149.993 Y160.431 E9.35993
G0 F6000 X150.247 Y160.791
;TYPE:WALL-INNER
G1 F989.7 X150.431 Y160.598 E9.37068
G1 F1066.7 X150.473 Y160.37 E9.37936
G1 F1188.1 X150.477 Y157.416 E9.47859
G1 F1076.2 X150.431 Y157.084 E9.49102
G1 F1000 X150.327 Y156.965 E9.49733
G1 F1500 E7.49733
G1 F300 Z0.4
G0 F6000 X141.376 Y156.966 Z0.4
G1 F300 Z0.2
G1 F1500 E9.49733
G1 F995.9 X141.273 Y157.084 E9.50361
G1 F1078.7 X141.227 Y157.416 E9.51601
G1 F1185.2 X141.231 Y160.37 E9.61549
G1 F1066.7 X141.273 Y160.598 E9.62416
G1 F987.7 X141.458 Y160.791 E9.63497
G1 F1500 E7.63497
G1 F300 Z0.4
G0 F6000 X157.525 Y161.684 Z0.4
G1 F300 Z0.2
G1 F1500 E9.63497
G1 F1203 X159.622 Y161.684 E9.70454
G1 X159.646 Y161.559 E9.70876
G1 X159.987 Y161.284 E9.7233
G1 X157.092 Y161.284 E9.81934
G1 F1200 X157.5 Y161.559 E9.83571
G1 X157.525 Y161.684 E9.83995
G0 F6000 X157.173 Y162.084
G1 F1200 X159.973 Y162.084 E9.93308
G1 X160.016 Y161.708 E9.94566
G1 F1156.6 X160.467 Y161.327 E9.96604
G1 F1121.5 X162.118 Y161.322 E10.02479
G1 F1129.4 X162.544 Y160.896 E10.04608
G1 F1121.5 X160.43 Y160.899 E10.12132
G1 F1156.6 X159.461 Y160.885 E10.15476
G1 F1200 X157.685 Y160.884 E10.21383
G1 F1165 X156.573 Y160.896 E10.25192
G1 F1129.4 X154.552 Y160.896 E10.32334
G1 X154.978 Y161.322 E10.34463
G1 X156.573 Y161.322 E10.401
G1 F1165 X157.129 Y161.709 E10.42421
G1 F1200 X157.173 Y162.084 E10.43677
G1 F1500 E8.43677
G1 F300 Z0.4
G0 F6000 X157.179 Y156.422 Z0.4
G1 F300 Z0.2
G1 F1500 E10.43677
G1 F1129.4 X160.035 Y156.422 E10.53769
G1 X159.623 Y156.136 E10.55542
G1 X159.598 Y155.996 E10.56044
G1 X157.548 Y155.996 E10.63289
G1 X157.523 Y156.136 E10.63791
G1 X157.179 Y156.422 E10.65372
G1 F1500 E8.65372
G1 F300 Z0.4
G0 F6000 X154.552 Y156.822 Z0.4
G1 F300 Z0.2
G1 F1500 E10.65372
G1 F1121.5 X156.716 Y156.819 E10.73074
G1 F1156.6 X157.722 Y156.834 E10.76545
G1 F1200 X159.424 Y156.834 E10.82206
G1 F1165 X160.573 Y156.822 E10.86143
G1 F1129.4 X162.544 Y156.822 E10.93108
G1 X162.118 Y156.396 E10.95237
G1 X160.573 Y156.396 E11.00697
G1 F1165 X160.01 Y155.993 E11.03069
G1 F1200 X159.973 Y155.584 E11.04435
G1 X157.173 Y155.584 E11.13748
G1 X157.136 Y155.993 E11.15113
G1 F1156.6 X156.679 Y156.391 E11.17205
G1 F1121.5 X154.978 Y156.396 E11.23258
G1 F1129.4 X154.552 Y156.822 E11.25387
G1 F1500 E9.25387
G1 F300 Z0.4
G0 F6000 X154.323 Y160.45 Z0.4
;TYPE:WALL-OUTER
G1 F300 Z0.2
G1 F1500 E11.25387
G1 F1121.5 X154.323 Y157.647 E11.35363
G1 F1032.3 X154.27 Y157.353 E11.36518
G1 F973.6 X154.354 Y157.234 E11.37115
G1 F1076.2 X156.913 Y157.234 E11.46605
G1 F1121.5 X159.472 Y157.234 E11.55712
G1 F1173.6 X162.031 Y157.234 E11.64415
G1 F1045.8 X162.722 Y157.222 E11.67052
G1 F985.6 X162.773 Y157.268 E11.67331
G1 F1121.5 X162.773 Y160.071 E11.77306
G1 F1032.3 X162.826 Y160.365 E11.78461
G1 F921.3 X162.755 Y160.466 E11.78996
G1 F1052.6 X162.573 Y160.484 E11.79689
G1 F1200 X155.066 Y160.484 E12.04658
G1 F1045.8 X154.374 Y160.496 E12.07299
G1 F985.6 X154.323 Y160.45 E12.07577
G1 F1500 E10.07577
G1 F300 Z0.4
G0 F6000 X156.773 Y162.484 Z0.4
G1 F300 Z0.2
G1 F1500 E12.07577
G1 F1200 X160.373 Y162.484 E12.19551
G1 X160.373 Y161.869 E12.21596
G1 X160.538 Y161.736 E12.22301
G1 X162.289 Y161.734 E12.28125
G1 X162.855 Y161.167 E12.3079
G1 F1111.1 X163.241 Y160.666 E12.33062
G1 F989.7 X163.52 Y160.428 E12.34541
G1 F1059.6 X163.573 Y160.071 E12.359
G1 F1200 X163.573 Y157.434 E12.44671
G1 F1159.4 X163.573 Y157.242 E12.45332
G1 F1081.1 X163.075 Y156.859 E12.47651
G1 F1098.4 X162.851 Y156.557 E12.49017
G1 F1179.4 X162.289 Y155.984 E12.51734
G1 F1200 X160.573 Y155.984 E12.57441
G1 X160.373 Y155.846 E12.58249
G1 X160.373 Y155.184 E12.60451
G1 X156.773 Y155.184 E12.72425
G1 X156.773 Y155.844 E12.7462
G1 X156.608 Y155.982 E12.75335
G1 X154.807 Y155.984 E12.81325
G1 X154.241 Y156.551 E12.8399
G1 F1111.1 X153.855 Y157.052 E12.86262
G1 F989.7 X153.576 Y157.29 E12.87741
G1 F1059.6 X153.523 Y157.647 E12.891
G1 F1159.4 X153.523 Y160.476 E12.98839
G1 F1081.1 X154.021 Y160.859 E13.01158
G1 F1098.4 X154.245 Y161.161 E13.02525
G1 F1179.4 X154.807 Y161.734 E13.05241
G1 F1200 X156.573 Y161.734 E13.11114
G1 X156.773 Y161.868 E13.11915
G1 X156.773 Y162.484 E13.13964
G1 F1500 E11.13964
G1 F300 Z0.4
G0 F6000 X153.923 Y160.284 Z0.4
;TYPE:WALL-INNER
G1 F300 Z0.2
G1 F1500 E13.13964
G1 F1200 X153.923 Y157.647 E13.22735
G1 F1500 E11.22735
G1 F300 Z0.4
G0 F6000 X163.173 Y157.434 Z0.4
G1 F300 Z0.2
G1 F1500 E13.22735
G1 F1200 X163.173 Y160.071 E13.31505
G1 F1500 E11.31505
G1 F300 Z0.4
;MESH:NONMESH
G0 F6000 X146.676 Y143.001 Z0.4
;TIME_ELAPSED:32.730915
;LAYER:1
M106 S85
;TYPE:WALL-OUTER
;MESH:Servo-plug-matching-covers.stl
G1 F300 Z0.4
G1 F1500 E13.31505
G1 F1645.9 X146.512 Y143.164 E13.32276
G1 F1650 X136.974 Y143.166 E13.64
G1 F1645.9 X136.828 Y143.001 E13.64734
G1 X136.827 Y138.716 E13.79022
G1 F1650 X136.971 Y138.518 E13.79836
G1 X146.531 Y138.516 E14.11633
G1 X146.677 Y138.716 E14.12457
G1 F1645.9 X146.676 Y143.001 E14.26744
G0 F8250 X147.077 Y143.966
G1 F1650 X147.077 Y138.13 E14.46155
G1 X147.077 Y137.716 E14.47532
G1 X136.427 Y137.716 E14.82954
G1 X136.427 Y143.966 E15.03741
G1 X147.077 Y143.966 E15.39164
G0 F8250 X146.663 Y143.552
;TYPE:WALL-INNER
G1 F1594.2 X146.477 Y143.566 E15.39806
G1 F1650 X137.027 Y143.566 E15.71236
G1 F1594.2 X136.841 Y143.552 E15.71879
G1 F1500 E13.71879
G1 F300 Z0.6
G0 F8250 X136.841 Y138.13 Z0.6
G1 F300 Z0.4
G1 F1500 E15.71879
G1 F1594.2 X137.027 Y138.116 E15.72521
G1 F1650 X146.477 Y138.116 E16.03951
G1 F1594.2 X146.663 Y138.13 E16.04594
G1 F1500 E14.04594
G1 F300 Z0.6
G0 F8250 X151.79 Y142.999 Z0.6
;TYPE:WALL-OUTER
G1 F300 Z0.4
G1 F1500 E16.04594
G1 F1755.3 X151.79 Y138.716 E16.17984
G1 F1705.4 X151.963 Y138.516 E16.18835
G1 F1650 X161.541 Y138.516 E16.50692
G1 F1705.4 X161.714 Y138.716 E16.51543
G1 F1755.3 X161.714 Y142.999 E16.64933
G1 F1701 X161.541 Y143.166 E16.65709
G1 F1650 X151.963 Y143.166 E16.97566
G1 F1696.7 X151.79 Y142.999 E16.98343
G0 F8250 X151.428 Y144.165
G1 F1650 X162.077 Y144.166 E17.33762
G1 X162.077 Y143.665 E17.35428
G1 F1705.4 X162.09 Y142.966 E17.37678
G1 F1760 X162.09 Y138.716 E17.5093
G1 F1705.4 X162.077 Y138.017 E17.5318
G1 F1650 X162.077 Y137.516 E17.54846
G1 X151.428 Y137.517 E17.90265
G1 X151.428 Y138.017 E17.91928
G1 F1705.4 X151.414 Y138.716 E17.94178
G1 F1760 X151.414 Y142.966 E18.0743
G1 F1705.4 X151.428 Y143.665 E18.0968
G1 F1650 X151.428 Y144.165 E18.11343
G0 F8250 X151.928 Y143.665
;TYPE:WALL-INNER
G1 F1098.2 X161.576 Y143.665 E18.59557
G1 F1500 E16.59557
G1 F300 Z0.6
G0 F8250 X161.576 Y138.017 Z0.6
G1 F300 Z0.4
G1 F1500 E18.59557
G1 F1098.2 X151.928 Y138.017 E19.07771
G1 F1500 E17.07771
G1 F300 Z0.6
G0 F8250 X144.483 Y156.404 Z0.6
G1 F300 Z0.4
G1 F1500 E19.07771
G1 F1552.9 X147.339 Y156.404 E19.17864
G1 X146.927 Y156.118 E19.19636
G1 X146.902 Y155.978 E19.20139
G1 X144.852 Y155.978 E19.27383
G1 X144.827 Y156.118 E19.27886
G1 X144.483 Y156.404 E19.29467
G0 F8250 X145.026 Y156.816
G1 F1650 X146.728 Y156.816 E19.35128
G1 F1601.9 X147.877 Y156.804 E19.39064
G1 F1552.9 X149.877 Y156.804 E19.46132
G1 F1479.8 X150.327 Y156.965 E19.47904
G1 X149.971 Y156.578 E19.49854
G1 F1552.9 X149.772 Y156.378 E19.50851
G1 X147.877 Y156.378 E19.57548
G1 F1601.9 X147.314 Y155.975 E19.5992
G1 F1650 X147.277 Y155.566 E19.61286
G1 X144.477 Y155.566 E19.70599
G1 X144.44 Y155.975 E19.71965
G1 F1590.4 X143.983 Y156.373 E19.74056
G1 F1542.1 X141.932 Y156.378 E19.81355
G1 F1552.9 X141.734 Y156.577 E19.82347
G1 F1469.9 X141.376 Y156.966 E19.84321
G1 X141.827 Y156.804 E19.8611
G1 F1542.1 X144.02 Y156.801 E19.93915
G1 F1590.4 X145.026 Y156.816 E19.97386
G1 F1500 E17.97386
G1 F300 Z0.6
G0 F8250 X144.829 Y161.666 Z0.6
G1 F300 Z0.4
G1 F1500 E19.97386
G1 F1654.1 X146.926 Y161.666 E20.04344
G1 X146.95 Y161.541 E20.04766
G1 X147.291 Y161.266 E20.06219
G1 X144.396 Y161.266 E20.15824
G1 F1650 X144.804 Y161.541 E20.17461
G1 X144.829 Y161.666 E20.17884
G0 F8250 X144.477 Y162.066
G1 F1650 X147.277 Y162.066 E20.27197
G1 X147.32 Y161.69 E20.28456
G1 F1590.4 X147.771 Y161.309 E20.30493
G1 F1542.1 X149.772 Y161.304 E20.37615
G1 F1552.9 X149.97 Y161.105 E20.38607
G1 F1463.4 X150.247 Y160.791 E20.40177
G1 X149.877 Y160.878 E20.41602
G1 F1542.1 X147.734 Y160.881 E20.49229
G1 F1590.4 X146.765 Y160.867 E20.52573
G1 F1650 X144.989 Y160.866 E20.5848
G1 F1601.9 X143.877 Y160.878 E20.6229
G1 F1552.9 X141.827 Y160.878 E20.69534
G1 F1457 X141.458 Y160.791 E20.70962
G1 X141.733 Y161.104 E20.72532
G1 F1552.9 X141.932 Y161.304 E20.73529
G1 X143.877 Y161.304 E20.80402
G1 F1601.9 X144.433 Y161.691 E20.82723
G1 F1650 X144.477 Y162.066 E20.83979
G1 F1500 E18.83979
G1 F300 Z0.6
G0 F8250 X147.677 Y162.466 Z0.6
;TYPE:WALL-OUTER
G1 F300 Z0.4
G1 F1500 E20.83979
G1 F1650 X147.677 Y161.851 E20.86024
G1 X147.842 Y161.718 E20.86729
G1 X149.943 Y161.716 E20.93717
G1 X150.877 Y160.782 E20.9811
G1 X150.877 Y157.084 E21.1041
G1 X150.877 Y156.9 E21.11022
G1 X149.943 Y155.966 E21.15415
G1 X147.877 Y155.966 E21.22286
G1 X147.677 Y155.828 E21.23095
G1 X147.677 Y155.166 E21.25296
G1 X144.077 Y155.166 E21.3727
G1 X144.077 Y155.826 E21.39465
G1 X143.912 Y155.964 E21.40181
G1 X141.761 Y155.966 E21.47335
G1 X140.828 Y156.9 E21.51726
G1 X140.828 Y160.782 E21.64637
G1 X141.761 Y161.716 E21.69028
G1 X143.877 Y161.716 E21.76066
G1 X144.077 Y161.85 E21.76867
G1 X144.077 Y162.466 E21.78916
G1 X147.677 Y162.466 E21.90889
G1 F1500 E19.90889
G1 F300 Z0.6
G0 F8250 X149.993 Y160.431 Z0.6
G1 F300 Z0.4
G1 F1500 E21.90889
G1 F1650 X149.877 Y160.466 E21.91292
G1 X141.827 Y160.466 E22.18067
G1 X141.711 Y160.43 E22.18471
G1 X141.629 Y160.301 E22.18979
G1 X141.627 Y157.416 E22.28575
G1 X141.685 Y157.274 E22.29085
G1 X141.827 Y157.216 E22.29595
G1 X149.877 Y157.216 E22.56369
G1 X150.019 Y157.273 E22.56878
G1 X150.077 Y157.416 E22.57392
G1 X150.075 Y160.301 E22.66987
G1 X149.993 Y160.431 E22.67498
G0 F8250 X150.247 Y160.791
;TYPE:WALL-INNER
G1 F1360.8 X150.431 Y160.598 E22.68574
G1 F1466.7 X150.473 Y160.37 E22.69441
G1 F1633.7 X150.477 Y157.416 E22.79365
G1 F1479.8 X150.431 Y157.084 E22.80608
G1 F1375 X150.327 Y156.965 E22.81238
G1 F1500 E20.81238
G1 F300 Z0.6
G0 F8250 X141.376 Y156.966 Z0.6
G1 F300 Z0.4
G1 F1500 E22.81238
G1 F1369.3 X141.273 Y157.084 E22.81866
G1 F1483.1 X141.227 Y157.416 E22.83106
G1 F1629.6 X141.231 Y160.37 E22.93054
G1 F1466.7 X141.273 Y160.598 E22.93922
